X:1
T:Amar Pelos Dois
T:Amar Pelos Dois
T:Salvador Sobral
T:Music & Lyrics: Luísa Sobral
T:Arr. Chikara  Onda(*)
T:Amar Pelos Dois (Piano version)
T:Arr. Mercuzio
T:Music & Lyrics by Luísa Sobral
T:Amar Pelos Dois
T:(Piano solo - easy version)
T:Music & Lyrics by Luísa Sobral
T:Amar Pelos Dois
T:Arr: Mads Klinge
T:Music & Lyrics by Luísa Sobral
T:Amar Pelos Dois
T:Music & Lyrics: Luísa Sobral
T:(easy guitar chords)
T:Amar Pelos Dois
T:(Ukulele)
T:Music & Lyrics: Luísa Sobral
T:(G-C-E-A)
T:Amar Pelos Dois
T:Music & Lyrics: Luísa Sobral
T:(D-A-B-E)
T:(Cavaquinho português)
T:Amar Pelos Dois
T:(Bandolim - Mandolim)
T:Music & Lyrics: Luísa Sobral
C:Luisa Sobral
Z:Luisa Sobral
%%score 1 { ( 2 4 6 ) | ( 3 5 7 ) } [ ( 8 9 ) ( 10 11 ) ]
L:1/8
Q:1/4=88
M:3/4
K:F
V:1 treble nm="Viola"
V:2 treble nm="Piano"
V:4 treble 
V:6 treble 
V:3 bass 
V:5 bass 
V:7 bass 
V:8 treble-8 nm="Guitarra Clássica"
V:9 treble-8 
V:10 tab stafflines=6 strings=E2,A2,D3,G3,B3,E4 nostems nm="Classical Guitar [Tablature]"
V:11 tab stafflines=6 strings=E2,A2,D3,G3,B3,E4 nostems 
V:1
"^Amoroso""^Guitar is always played with:\nbass + 2 + 3 and 4, strings" z6 | z6 | z6 | z6 | z6 | %5
w: |||||
w: |||||
 z6 | z6 |"Gb7" z6 | z4 z c ||"Fmaj7" c2 g3 f |"Edim7" B2 z2 z B |"Dm7" A d3 d z |"G7" D2 z4 | %13
w: |||Se'um|di- a al-|guém per-|gun- tar por|mim|
w: ||||If _ some|day some-|body asks 'bout|me|
"Gm7" D4 FG |"C9" c4 z c/d/ |"F+7" c6 |"C7sus4" z4 z2 |"Fmaj7" c4 gf |"Edim7" B2 z2 z2 | %19
w: Diz que vi-|vi p'ra te'a-|mar||An- tes de|ti|
w: Tell them that|I lived to|love~you||Before~you came a-|long|
"Dm7" A2 d3 d |"G7" D2 z2 z D |"Gm7" D4 FG |"C9" A4 EG |"F+7" F6 |"Ebmaj7/F" z4 z2 |:"Bbmaj7" f6 | %26
w: só e- xis-|ti Can-|sa- do'e sem|na- da p'ra|dar||Meu|
w: I drifted through|life *|Ti- red with|no- thing to|give||My|
"A7" e4 z2 |"Dm7" e3 d AF | e d3 z2 |"Gm7" c3 c Bd | A G3 EF |"C9" G3 F FA |"C7" G4 z2 | %33
w: bem|ou- ve'as mi- nhas|pre- ces|Pe- ço que re-|gres- ses que me|vol- tes a que-|rer|
w: dear|won't you hear my|pra- yer|Beg- ning you to|come home to _|give me once a-|gain|
"Bbmaj7" f6 |"A7" e4 z e |"Dm7" e2 d A2 F |"G7" e d3 z c |"Gm7" B3 A GF | DE z2 FG |"C9" A3 E EG | %40
w: Eu|sei que|não se'a- ma so-|zi- nho Tal-|vez de- va- ga-|ri- nho pos- sas|vol- tar a'a- pren-|
w: I|know that'I|can't love on my|own _ _|May- be you'll re-|mem- ber how to|love me once a-|
"F+7" F6 |1"F" z2"C/G" z2"F/A" z2 |"Bb9" z6 |"A7" z6 |"Dm7" z6 |"G9" z6 |"Gm9" z6 | %47
w: der|||||||
w: gain|||||||
"Bbmaj7/C" z4"C7" z2 |"Cm7" z6 |"Gbmb5/F" z6 :|2"Bbmaj7" z4 z c ||"Fmaj7" c4 z g/f/ | %52
w: |||Se'o|teu co- ra-|
w: ||||If your _|
"Edim7" B4 z B |"Dm7" A2 d2 d2 |"G7" !fermata!D4 z D |"Gm7" D4 FG |"C9" A2 z2 FG |"Am7" E4 E2 | %58
w: ção não|qui- ser ce-|der Não|sen- tir pai-|xão não qui-|ser so-|
w: heart can't|bear to give|in Out'of|fear of the|pain of the|pas- sion'we|
"D9" c4 z2 |"Bbmaj7" f4 ef |"Bdim7" e d3 z e |"C""^only the bass" d2 c A2"Db" c |"D7" !fermata!D6 | %63
w: frer|Sem fa- zer|pla- nos do|que vi- rá de-|pois|
w: shared|Without ma- king|promi- ses of|what's to come a-|heard|
"Gm7" D4 FG |"C7" A4 cA |"Bbmaj7" G2 F2 E2 |"Fmaj7" F6 | z4 z2 | z6 |"Fmaj7" z6 |] %70
w: O'meu co- ra-|ção po- de|amar pe- los|dois||||
w: My'heart can _|love for _|the'two _ of|us||||
[K:F][M:3/4][K:treble] z6 | z6 | z6 | z6 | z6 | z6 | z6 | z6 | z6 || z6 | z6 | z6 | z6 | z6 | z6 | %85
w: |||||||||||||||
w: |||||||||||||||
 z6 | z6 | z6 | z6 | z6 | z6 | z6 | z6 | z6 | z6 || z6 | z6 | z6 | z6 | z6 | z6 | z6 | z6 | z6 | %104
w: |||||||||||||||||||
w: |||||||||||||||||||
 z6 | z6 | z6 | z6 | z6 | z6 | z6 || z6 | z6 | z6 | z6 | z6 | z6 | z6 | z6 | z6 || z6 | z6 | z6 | %123
w: |||||||||||||||||||
w: |||||||||||||||||||
 z6 |[K:treble] z6 | z6 | z6 | z6 || z6 | z6 | z6 | z6 | z6 | z6 | z6 | z6 || z6 | z6 | z6 | z6 | %140
w: |||||||||||||||||
w: |||||||||||||||||
 z6 | z6 | z6 | z6 | z6 | z6 | z6 | z6 | z6 | z6 | z6 | z6 | z6 | z6 | z6 | z6 | %156
w: ||||||||||||||||
w: ||||||||||||||||
[K:F][M:3/4][K:treble] z6 | z6 | z6 | z6 | z6 | z6 | z6 | z6 | z6 || z6 | z6 | z6 | z6 | z6 | z6 | %171
w: |||||||||||||||
w: |||||||||||||||
 z6 | z6 | z6 | z6 | z6 | z6 | z6 | z6 | z6 | z6 |: z6 | z6 | z6 | z6 | z6 | z6 | z6 | z6 | z6 | %190
w: |||||||||||||||||||
w: |||||||||||||||||||
 z6 | z6 | z6 | z6 | z6 | z6 | z6 ||1 z6 | z6 | z6 | z6 | z6 | z6 | z6 | z6 | z6 :| z6 | z6 | z6 | %209
w: |||||||||||||||||||
w: |||||||||||||||||||
 z6 | z6 | z6 | z6 | z6 | z6 | z6 | z6 | z6 | z6 | z6 | z6 | z6 | z6 | z6 | z6 |[K:treble-8] z6 | %226
w: |||||||||||||||||
w: |||||||||||||||||
 z6 | z6 | z6 | z6 | z6 | z6 | z6 | z6 || z6 | z6 | z6 | z6 | z6 | z6 | z6 | z6 | z6 | z6 | z6 | %245
w: |||||||||||||||||||
w: |||||||||||||||||||
 z6 | z6 | z6 | z6 | z6 |: z6 | z6 | z6 | z6 | z6 | z6 | z6 | z6 | z6 | z6 | z6 | z6 | z6 | z6 | %264
w: |||||||||||||||||||
w: |||||||||||||||||||
 z6 ||1 z6 | z6 | z6 | z6 | z6 | z6 | z6 | z6 | z6 | z6 :|2 z6 || z6 | z6 | z6 | z6 | z6 | z6 | %282
w: ||||||||||||||||||
w: ||||||||||||||||||
 z6 | z6 | z6 | z6 | z6 | z6 | z6 | z6 | z6 | z6 |][K:treble]"F" z3/2 FGA/ B/c/d/e/ | %293
w: |||||||||||
w: |||||||||||
"Bb" f2 e2 d2 |"A" ^c2 a2 g2 |"Dm" f2 d2 c2 |"G" =B6 | ed ^cd gf | !fermata!^c6 | %299
w: ||||||
w: ||||||
"Gb" _e_d cd _g_f || c4 z c |"F" c2 g3 f |"Bb" B2 z2 z B |"Dm" A d3 d z |"G" D2 z4 |"Bb" D4 FG | %306
w: |* Se'um|di- a al-|guém per-|gun- tar por|mim|Diz que vi-|
w: ||If _ some|day some-|body asks 'bout|me|Tell them that|
"C" c4 z c/d/ |"F" c6 |"C" z4 z2 |"F" c4 gf |"Bb" B2 z2 z2 |"Dm" A2 d3 d |"G" D2 z2 z D | %313
w: vi p'ra te'a-|mar||An- tes de|ti|só e- xis-|ti Can-|
w: I lived to|love~you||Before~you came a-|long|I drifted through|life *|
"Gm" D4 FG |"C" A4 EG |"F" F6 |"C" z4 z2 |:"F" f6 |"A" e4 z2 |"Dm" e3 d AF | e d3 z2 | %321
w: sa- do'e sem|na- da p'ra|dar||Meu|bem|ou- ve'as mi- nhas|pre- ces|
w: Ti- red with|no- thing to|give||My|dear|won't you hear my|pra- yer|
"Gm" c3 c Bd | A G3 EF |"Bb" G3 F FA |"C" G4 z2 |"F" f6 |"A" e4 z e |"Dm" e2 d A2 F |"G" e d3 z c | %329
w: Pe- ço que re-|gres- ses que me|vol- tes a que-|rer|Eu|sei que|não se'a- ma so-|zi- nho Tal-|
w: Beg- ning you to|come home to _|give me once a-|gain|I|know that'I|can't love on my|own _ _|
"Gm" B3 A GF | DE z2 FG |"C" A3 E EG |"F" F6 ||1 z2 z/ F/G/A/ B/c/d/e/ |"Bb" f2 e2 d2 | %335
w: vez de- va- ga-|ri- nho pos- sas|vol- tar a'a- pren-|der|||
w: May- be you'll re-|mem- ber how to|love me once a-|gain|||
"A" ^c2 a2 g2 |"Dm" f2 d2 c2 |"G" =B4 z A |"Gm" A3 G DC |"Bb" A3 G ED |"Cm" C3 D _EG | %341
w: ||||||
w: ||||||
"Bb" Bd f_e _a_g :|2"Bb" z4 z c ||"F" c4 z g/f/ |"Bb" B4 z B |"Dm" A2 d2 d2 |"G" !fermata!D4 z D | %347
w: |Se'o|teu co- ra-|ção não|qui- ser ce-|der Não|
w: ||If your _|heart can't|bear to give|in Out'of|
"Gm" D4 FG |"C" A2 z2 FG |"Am" E4 E2 |"C" c4 z2 |"F" f4 ef |"Bb" e d3 z e |"Dm" d2 c A2 c | %354
w: sen- tir pai-|xão não qui-|ser so-|frer|Sem fa- zer|pla- nos do|que vi- rá de-|
w: fear of the|pain of the|pas- sion'we|shared|Without ma- king|promi- ses of|what's to come a-|
"G" !fermata!D6 |"Gm" D4 FG |"F" A4 cA |"C" G2 F2 E2 |"Fmaj7" F6 |]"F" z3/2 FGA/ B/c/d/e/ | %360
w: pois|O'meu co- ra-|ção po- de|amar pe- los|dois||
w: heard|My'heart can _|love for _|the'two _ of|us||
"Bb" f2 e2 d2 |"A" ^c2 a2 g2 |"Dm" f2 d2 c2 |"G" =B6 | ed ^cd gf | !fermata!^c6 | %366
w: ||||||
w: ||||||
"Gb" _e_d cd _g_f | c4 z c |"F" c2 g3 f |"Bb" B2 z2 z B |"Dm" A d3 d z |"G" D2 z4 |"Bb" D4 FG | %373
w: |* Se'um|di- a al-|guém per-|gun- tar por|mim|Diz que vi-|
w: ||If _ some|day some-|body asks 'bout|me|Tell them that|
"C" c4 z c/d/ |"F" c6 |"C" z4 z2 |"F" c4 gf |"Bb" B2 z2 z2 |"Dm" A2 d3 d |"G" D2 z2 z D | %380
w: vi p'ra te'a-|mar||An- tes de|ti|só e- xis-|ti Can-|
w: I lived to|love~you||Before~you came a-|long|I drifted through|life *|
"Gm" D4 FG |"C" A4 EG |"F" F6 |"C" z4 z2 |:"F" f6 |"A" e4 z2 |"Dm" e3 d AF | e d3 z2 | %388
w: sa- do'e sem|na- da p'ra|dar||Meu|bem|ou- ve'as mi- nhas|pre- ces|
w: Ti- red with|no- thing to|give||My|dear|won't you hear my|pra- yer|
"Gm" c3 c Bd | A G3 EF |"Bb" G3 F FA |"C" G4 z2 |"F" f6 |"A" e4 z e |"Dm" e2 d A2 F |"G" e d3 z c | %396
w: Pe- ço que re-|gres- ses que me|vol- tes a que-|rer|Eu|sei que|não se'a- ma so-|zi- nho Tal-|
w: Beg- ning you to|come home to _|give me once a-|gain|I|know that'I|can't love on my|own _ _|
"Gm" B3 A GF | DE z2 FG |"C" A3 E EG |"F" F6 |1 z2 z/ F/G/A/ B/c/d/e/ |"Bb" f2 e2 d2 | %402
w: vez de- va- ga-|ri- nho pos- sas|vol- tar a'a- pren-|der|||
w: May- be you'll re-|mem- ber how to|love me once a-|gain|||
"A" ^c2 a2 g2 |"Dm" f2 d2 c2 |"G" =B4 z A |"Gm" A3 G DC |"Bb" A3 G ED |"Cm" C3 D _EG | %408
w: ||||||
w: ||||||
"Bb" Bd f_e _a_g :|2"Bb" z4 z c ||"F" c4 z g/f/ |"Bb" B4 z B |"Dm" A2 d2 d2 |"G" !fermata!D4 z D | %414
w: |Se'o|teu co- ra-|ção não|qui- ser ce-|der Não|
w: ||If your _|heart can't|bear to give|in Out'of|
"Gm" D4 FG |"C" A2 z2 FG |"Am" E4 E2 |"C" c4 z2 |"F" f4 ef |"Bb" e d3 z e |"Dm" d2 c A2 c | %421
w: sen- tir pai-|xão não qui-|ser so-|frer|Sem fa- zer|pla- nos do|que vi- rá de-|
w: fear of the|pain of the|pas- sion'we|shared|Without ma- king|promi- ses of|what's to come a-|
"G" !fermata!D6 |"Gm" D4 FG |"F" A4 cA |"C" G2 F2 E2 |"Fmaj7" F6 |]"F" z3/2 FGA/ B/c/d/e/ | %427
w: pois|O'meu co- ra-|ção po- de|amar pe- los|dois||
w: heard|My'heart can _|love for _|the'two _ of|us||
"Bb" f2 e2 d2 |"A" ^c2 a2 g2 |"Dm" f2 d2 c2 |"G" =B6 | ed ^cd gf | !fermata!^c6 | %433
w: ||||||
w: ||||||
"Gb" _e_d cd _g_f | c4 z c |"F" c2 g3 f |"Bb" B2 z2 z B |"Dm" A d3 d z |"G" D2 z4 |"Bb" D4 FG | %440
w: |* Se'um|di- a al-|guém per-|gun- tar por|mim|Diz que vi-|
w: ||If _ some|day some-|body asks 'bout|me|Tell them that|
"C" c4 z c/d/ |"F" c6 |"C" z4 z2 |"F" c4 gf |"Bb" B2 z2 z2 |"Dm" A2 d3 d |"G" D2 z2 z D | %447
w: vi p'ra te'a-|mar||An- tes de|ti|só e- xis-|ti Can-|
w: I lived to|love~you||Before~you came a-|long|I drifted through|life *|
"Gm" D4 FG |"C" A4 EG |"F" F6 |"C" z4 z2 |:"F" f6 |"A" e4 z2 |"Dm" e3 d AF | e d3 z2 | %455
w: sa- do'e sem|na- da p'ra|dar||Meu|bem|ou- ve'as mi- nhas|pre- ces|
w: Ti- red with|no- thing to|give||My|dear|won't you hear my|pra- yer|
"Gm" c3 c Bd | A G3 EF |"Bb" G3 F FA |"C" G4 z2 |"F" f6 |"A" e4 z e |"Dm" e2 d A2 F |"G" e d3 z c | %463
w: Pe- ço que re-|gres- ses que me|vol- tes a que-|rer|Eu|sei que|não se'a- ma so-|zi- nho Tal-|
w: Beg- ning you to|come home to _|give me once a-|gain|I|know that'I|can't love on my|own _ _|
"Gm" B3 A GF | DE z2 FG |"C" A3 E EG |"F" F6 |1 z2 z/ F/G/A/ B/c/d/e/ |"Bb" f2 e2 d2 | %469
w: vez de- va- ga-|ri- nho pos- sas|vol- tar a'a- pren-|der|||
w: May- be you'll re-|mem- ber how to|love me once a-|gain|||
"A" ^c2 a2 g2 |"Dm" f2 d2 c2 |"G" =B4 z A |"Gm" A3 G DC |"Bb" A3 G ED |"Cm" C3 D _EG | %475
w: ||||||
w: ||||||
"Bb" Bd f_e _a_g :|2"Bb" z4 z c ||"F" c4 z g/f/ |"Bb" B4 z B |"Dm" A2 d2 d2 |"G" !fermata!D4 z D | %481
w: |Se'o|teu co- ra-|ção não|qui- ser ce-|der Não|
w: ||If your _|heart can't|bear to give|in Out'of|
"Gm" D4 FG |"C" A2 z2 FG |"Am" E4 E2 |"C" c4 z2 |"F" f4 ef |"Bb" e d3 z e |"Dm" d2 c A2 c | %488
w: sen- tir pai-|xão não qui-|ser so-|frer|Sem fa- zer|pla- nos do|que vi- rá de-|
w: fear of the|pain of the|pas- sion'we|shared|Without ma- king|promi- ses of|what's to come a-|
"G" !fermata!D6 |"Gm" D4 FG |"F" A4 cA |"C" G2 F2 E2 |"Fmaj7" F6 |"F" z3/2 FGA/ B/c/d/e/ | %494
w: pois|O'meu co- ra-|ção po- de|amar pe- los|dois||
w: heard|My'heart can _|love for _|the'two _ of|us||
"Bb" f2 e2 d2 |"A" ^c2 a2 g2 |"Dm" f2 d2 c2 |"G" =B6 | ed ^cd gf | !fermata!^c6 | %500
w: ||||||
w: ||||||
"Gb" _e_d cd _g_f | c4 z c |"F" c2 g3 f |"Bb" B2 z2 z B |"Dm" A d3 d z |"G" D2 z4 |"Bb" D4 FG | %507
w: |* Se'um|di- a al-|guém per-|gun- tar por|mim|Diz que vi-|
w: ||If _ some|day some-|body asks 'bout|me|Tell them that|
"C" c4 z c/d/ |"F" c6 |"C" c4 z2 |"F" c4 gf |"Bb" B2 z2 z2 |"Dm" A2 d3 d |"G" D2 z2 z D | %514
w: vi p'ra te'a-|mar||An- tes de|ti|só e- xis-|ti Can-|
w: I lived to|love~you||Before~you came a-|long|I drifted through|life *|
"Gm" D4 FG |"C" A4 EG |"F" F6 |"C" z4 z2 |:"F" f6 |"A" e4 z2 |"Dm" e3 d AF | e d3 z2 | %522
w: sa- do'e sem|na- da p'ra|dar||Meu|bem|ou- ve'as mi- nhas|pre- ces|
w: Ti- red with|no- thing to|give||My|dear|won't you hear my|pra- yer|
"Gm" c3 c Bd | A G3 EF |"Bb" G3 F FA |"C" G4 z2 |"F" f6 |"A" e4 z e |"Dm" e2 d A2 F |"G" e d3 z c | %530
w: Pe- ço que re-|gres- ses que me|vol- tes a que-|rer|Eu|sei que|não se'a- ma so-|zi- nho Tal-|
w: Beg- ning you to|come home to _|give me once a-|gain|I|know that'I|can't love on my|own _ _|
"Gm" B3 A GF | DE z2 FG |"C" A3 E EG |"F" F6 |1 z2 z/ F/G/A/ B/c/d/e/ |"Bb" f2 e2 d2 | %536
w: vez de- va- ga-|ri- nho pos- sas|vol- tar a'a- pren-|der|||
w: May- be you'll re-|mem- ber how to|love me once a-|gain|||
"A" ^c2 a2 g2 |"Dm" f2 d2 c2 |"G" =B4 z A |"Gm" A3 G DC |"Bb" A3 G ED |"Cm" C3 D _EG | %542
w: ||||||
w: ||||||
"Bb" Bd f_e _a_g :|2"Bb" z4 z c ||"F" c4 z g/f/ |"Bb" B4 z B |"Dm" A2 d2 d2 |"G" !fermata!D4 z D | %548
w: |Se'o|teu co- ra-|ção não|qui- ser ce-|der Não|
w: ||If your _|heart can't|bear to give|in Out'of|
"Gm" D4 FG |"C" A2 z2 FG |"Am" E4 E2 |"C" c4 z2 |"F" f4 ef |"Bb" e d3 z e |"Dm" d2 c A2 c | %555
w: sen- tir pai-|xão não qui-|ser so-|frer|Sem fa- zer|pla- nos do|que vi- rá de-|
w: fear of the|pain of the|pas- sion'we|shared|Without ma- king|promi- ses of|what's to come a-|
"G" !fermata!D6 |"Gm" D4 FG |"F" A4 cA |"C" G2 F2 E2 |"Fmaj7" F6 |] %560
w: pois|O'meu co- ra-|ção po- de|amar pe- los|dois|
w: heard|My'heart can _|love for _|the'two _ of|us|
V:2
 z3/2 FGA/ B/c/d/e/ |"Bbmaj7" f2 e2 d2 |"A7" ^c2 !arpeggio![Acea]2 g2 | %3
"Dm7" !arpeggio![Acdf]2 d2 c2 |"G7" =B6 | ed ^cd gf | !fermata!^c6 | _E_D CD _G_F | !fermata!C6 || %9
 z2 [EAc]4 | z2 [DFBc]4 | z2 [CFA]4 | z2 [=B,EFA]4 | z2 [!courtesy!_B,DFA]4 | z2 [FA]2 G2 | %15
 z2 [A,CG]4 | z2 [B,D]F [CE]G | z2 [A,CG]4 | z2 [EG]B AE | z2 [CEFA]4 | z2 [=B,EFA]4 | %21
 z2 [!courtesy!_B,DFA]4 | z2 A2 G2 | z2 [G,A,CF]4 | z2 [G,B,]D [A,C]A, |: F6 | G6 | A6 | %28
 z2 [CDFA]4 | z2 [B,DFA]4 | z2 [B,DFA]4 | z2 [B,DFA]4 | z2 [FA]2 G2 | F6 | G2 F3 G | A6 | A6 | %37
 z2 [!courtesy!_B,DFA]4 | z2 [B,DFA]4 | z2 [B,DFA]2 G2 | z2 [G,A,CF]4 |1 z2 z/ F/G/A/ B/c/d/e/ | %42
"Bbmaj7" f2 e2 d2 |"A7" ^c2 !arpeggio![Acea]2 g2 |"Dm7" [Acdf]2 d2 c2 |"G7" =B4 z A | %46
"Gm7" A3 G DC | A3 G [B,DE]2 |"Cm7" C3 D _EG |"Ebmaj7/F" Bd f_e _a_g :|2 z2 [F=A]2 !courtesy!=G2 || %51
 z2 [EFAc]4 | z2 [DFBc]4 | z2 [FAc]4 | !arpeggio!!fermata![=B,EFA]6 | z2 [_B,DFA]4 | z2 [B,DFA]4 | %57
 z2 [CEA]4 | z2 [D^FB]4 | z2 [D=Fc]4 | z2 [DF=B]4 | z2 c2 _d2 | !fermata!=d6 | [B,DFA]6 | %64
 [FA]4 G2 | z2 [A,C]E [B,E]2 | z4 cA | G2 F2 [B,E]2 | [A,CF]6- | !fermata![A,CF]6 |] %70
[K:F][M:3/4] z2!p! F/!<(!G/A/=B/ c/^c/d/!<)!e/ | f2 e2 d2 | ^c2 a2 g2 | f2 d2 c2 | =B6 | %75
 !///-![a=b]3 f3 | !///-![a=b]2 f2- !fermata![fab]2 | !///-![_a_b]3 _f3 | %78
 !///-![_ab]2 _f2- !fermata!f2 || c2 g3 f | B4- B(B | A2 d3 d | z2) [EFA]4 | z2 [CFA]4 | %84
 A4-!>(! (3Acd!>)! | c6- | c6 | (c4 gf | B6) | A2!>(! d3 d!>)! | z2 [EFA]4 | z2 [DFA]4 | %92
 A4!>(! EG!>)! | F6 | z4 F2 ||!mp! (f6 | e6 | e3 d AF |!>(! e)d- d4!>)! | (c3 B (3AcA- | %100
 A!>(! G4) (E!>)! | G3 F E!<(!F | A2 G4)!<)! | (f6 | e4- ef | e2 (3d2 A2 F2 | e2)!>(! d3 (c!>)! | %107
 _B3 A GF | D E3) (FG | c6 | c6) || z4 z/4 G/4A/4B/4c/4^c/4d/4e/4 | f2 e2 d2!f! | ^c2 a2 g2 | %114
 f2!>(! d2 c2 | =B4-!>)! BA | A3 G!<(! DB,!<)! |!>(! A3 G ED!>)! | C3 D _EG | %119
!<(! Bd f_e _a_g!<)! ||!f! (f6 | e6 | e3 d AF | ed- d4) | (c3 B Ac | A G4) (F | G3 F EF | A2 G4) || %128
!f! f6 | e4- ef | e2 (3d2 A2 F2 | e2 d3 c | _B3 A GF | D E3 (FG | %134
 [ce]2 (3g/f/e/(3d/c/B/"_l. h." (3A/G/F/(3E/D/_D/ | F6) || z4 z (c | z2 [egac']4 | z2) [cdfac']4 | %139
 z2 [eg]4 | [FAe]6 | z2 [FAd]4 |!>(! z2!>)! [EGc]4 | z2 [GAc]4 | z2 [d^fb]4 |!mf! f4!<(! ef!<)! | %146
 ed- d3 e |!>(! dc!>)! A2 _d2 | [_E^F_Ac=d]4!p! !fermata!z2 | [CFA]6 |!>(! [DFc]6!>)! | %151
 [Ac]4 [B,_DGB]2 | F4 c'a | g2 f2 !courtesy!=e2 | f6 |!pp! !arpeggio![fad'g'c'']6 | %156
[K:F][M:3/4] z3/2 FGA/ B/c/d/e/ | f2 e2 d2 | ^c2 !arpeggio![Acea]2 g2 | !arpeggio![Acdf]2 d2 c2 | %160
 =B6 | ed ^cd gf | !fermata!^c6 | _e_d cd _g_f | c4 z !fermata!c || c2 g3 f | B2 z2 z B | A2 d3 d | %168
 D2 z4 | D4 FG | c4 cd | c6 | z2 [B,D]F [CE]G | c4 gf | B2 [EG]B AG | A2 d2 d2 | D2 z2 z D | %177
 D4 FG | A4 EG | F6 | z2 [G,B,]D [A,C]2 |: [Ff]6 | [Ge]4 z2 | [Ae]3 d AF | ed- d4 | c3 B Bd | %186
 A G3 EF | G3 F FA | AG- G4 | [Ff]6 | [Ge]6 | [Ae]3 d AF | e2 d3 c | B3 A GF | D2 E2 FG | A3 E EG | %196
 F6 ||1 z2 z/ F/G/A/ B/c/d/e/ | f2 e2 d2 | ^c2 !arpeggio![Acea]2 g2 | [Acdf]2 d2 c2 | %201
 =B2 [DFA]3 A | A3 G DC | A3 G ED | C3 D _EG | Bd [Acf]_e [=Be_a]_g :| z4 c2 | c4 z g/f/ | %208
 B2- B3 B | A2 d2 d2 | !fermata!D4 z D | D4 FG | A2 z2 FG | E4 E2 | c6 | f4 ef | e d3 z e | %217
 dc A2 c2 | !fermata!D6 | D4 FG | A4 cA | G2 F2 E2 | F4 c'a | g2 f2 e2 | %224
 !arpeggio!!fermata![Acf]6 | z6 | z6 | z6 | z6 | z6 | z6 | z6 | z6 | z6 || z6 | z6 | z6 | z6 | z6 | %239
 z6 | z6 | z6 | z6 | z6 | z6 | z6 | z6 | z6 | z6 | z6 |: z6 | z6 | z6 | z6 | z6 | z6 | z6 | z6 | %258
 z6 | z6 | z6 | z6 | z6 | z6 | z6 ||1 z6 | z6 | z6 | z6 | z6 | z6 | z6 | z6 | z6 | z6 :|2 z6 || %276
 z6 | z6 | z6 | z6 | z6 | z6 | z6 | z6 | z6 | z6 | z6 | z6 | z6 | z6 | z6 | z6 |] z6 | z6 | z6 | %295
 z6 | z6 | z6 | z6 | z6 || z6 | z6 | z6 | z6 | z6 | z6 | z6 | z6 | z6 | z6 | z6 | z6 | z6 | z6 | %314
 z6 | z6 | z6 |: z6 | z6 | z6 | z6 | z6 | z6 | z6 | z6 | z6 | z6 | z6 | z6 | z6 | z6 | z6 | z6 ||1 %333
 z6 | z6 | z6 | z6 | z6 | z6 | z6 | z6 | z6 :|2 z6 || z6 | z6 | z6 | z6 | z6 | z6 | z6 | z6 | z6 | %352
 z6 | z6 | z6 | z6 | z6 | z6 | z6 |] z6 | z6 | z6 | z6 | z6 | z6 | z6 | z6 | z6 | z6 | z6 | z6 | %371
 z6 | z6 | z6 | z6 | z6 | z6 | z6 | z6 | z6 | z6 | z6 | z6 | z6 |: z6 | z6 | z6 | z6 | z6 | z6 | %390
 z6 | z6 | z6 | z6 | z6 | z6 | z6 | z6 | z6 | z6 |1 z6 | z6 | z6 | z6 | z6 | z6 | z6 | z6 | z6 :|2 %409
 z6 || z6 | z6 | z6 | z6 | z6 | z6 | z6 | z6 | z6 | z6 | z6 | z6 | z6 | z6 | z6 | z6 |] z6 | z6 | %428
 z6 | z6 | z6 | z6 | z6 | z6 | z6 | z6 | z6 | z6 | z6 | z6 | z6 | z6 | z6 | z6 | z6 | z6 | z6 | %447
 z6 | z6 | z6 | z6 |: z6 | z6 | z6 | z6 | z6 | z6 | z6 | z6 | z6 | z6 | z6 | z6 | z6 | z6 | z6 | %466
 z6 |1 z6 | z6 | z6 | z6 | z6 | z6 | z6 | z6 | z6 :|2 z6 || z6 | z6 | z6 | z6 | z6 | z6 | z6 | z6 | %485
 z6 | z6 | z6 | z6 | z6 | z6 | z6 | z6 | z6 | z6 | z6 | z6 | z6 | z6 | z6 | z6 | z6 | z6 | z6 | %504
 z6 | z6 | z6 | z6 | z6 | z6 | z6 | z6 | z6 | z6 | z6 | z6 | z6 | z6 |: z6 | z6 | z6 | z6 | z6 | %523
 z6 | z6 | z6 | z6 | z6 | z6 | z6 | z6 | z6 | z6 | z6 |1 z6 | z6 | z6 | z6 | z6 | z6 | z6 | z6 | %542
 z6 :|2 z6 || z6 | z6 | z6 | z6 | z6 | z6 | z6 | z6 | z6 | z6 | z6 | z6 | z6 | z6 | z6 | z6 |] %560
V:3
 z6 | B,,F,!ped! [CD]4!ped-up! | A,,E,!ped! [G,^CE]4!ped-up! | G,,D,!ped! [CDF]4!ped-up! | %4
 G,,D,!ped! [F,A,D]4- | [F,A,D]6- | !fermata![F,A,D]6!ped-up! |!ped! [_D,_F,_G,]6- | %8
 !fermata![D,F,G,]6!ped-up! || %9
"_(*)Chikara Onda:\n\ncharlieohmusic@gmail.com\nhttps://pt.scribd.com/document/347812805/Amar-pelos-Dois-Voice-with-Piano-accompaniment-Portuguese-English-translation\n" F,,!ped!C,- C,4!ped-up! | %10
"_simile" F,,!ped!D,- D,4!ped-up! | D,,!ped!A,,- A,,4!ped-up! | G,,!ped!D,- D,4!ped-up! | %13
 G,,!ped!C,- C,4!ped-up! | C,!ped!F,- F,2 E,2!ped-up! | F,,!ped!C,- C,4!ped-up! | %16
 C,!ped!F,- F,2!ped-up! E,2 | F,,!ped!C,- C,4!ped-up! |!ped! E,B, D2 ^C2!ped-up! | %19
 D,!ped!A,- A,4!ped-up! | G,,!ped!D,- D,4!ped-up! | G,,!ped!D,- D,4!ped-up! | %22
 C,!ped!F,- F,2!ped-up! E,2 | F,,!ped!C,- C,4!ped-up! |!ped! F,,_E,- E,2 F,2!ped-up! |: %25
 B,,!ped!F,- F,4!ped-up! | A,,!ped!E,- E,4!ped-up! | D,,!ped!A,,- A,,4!ped-up! | %28
 D,,!ped!A,,- A,,4!ped-up! | G,,!ped!D,- D,4!ped-up! | G,,!ped!D,- D,4!ped-up! | %31
 C,!ped!F,- F,4!ped-up! | C,!ped!F,- F,2!ped-up! E,2 | B,,!ped!F,- F,4!ped-up! | %34
 A,,!ped!E,- E,4!ped-up! | D,,!ped!A,,- A,,4!ped-up! | G,,!ped!D,- D,4!ped-up! | %37
 G,,!ped!D,- D,4!ped-up! | G,,!ped!D,- D,4!ped-up! | C,!ped!F,- F,2!ped-up! E,2 | %40
 F,,!ped!C,- C,4!ped-up! |1 F,,C, G,,B,, A,,C, | B,,F,!ped! [CD]4!ped-up! | %43
 A,,E,!ped! [G,^CE]4!ped-up! | D,A,!ped! [CDF]4!ped-up! | G,,D,!ped! =B,4!ped-up! | %46
 G,,!ped!D,- D,4!ped-up! | C,!ped!F,- F,2!ped-up! E,2 | C,!ped!G,- G,4!ped-up! | %49
 F,,!ped!_E,- E,4!ped-up! :|2 C,!ped!F,- F,2 =E,2!ped-up! || z2!ped! A,4!ped-up! | %52
 z2!ped! B,4!ped-up! | z2!ped! C4!ped-up! |!ped! !fermata![G,,D,]6!ped-up! | %55
 G,,!ped!D,- D,4!ped-up! | C,!ped!F,- F,4!ped-up! | A,,!ped!G,- G,4!ped-up! | %58
 D,!ped!C- C4!ped-up! | B,,!ped!F,- F,4!ped-up! | =B,,!ped!F,- F,4!ped-up! | %61
 C,!ped!A,- A,2 _D,2!ped-up! |!ped! !fermata!=D,6!ped-up! |!ped! G,,6!ped-up! | %64
!ped! C,4 E,2!ped-up! |!ped! F,,C,- C,4- | C,6- | C,4!ped-up! C,2 |!ped! C,6- | %69
 !fermata!C,6!ped-up! |][K:F][M:3/4] z6 |!ped! [F,CD]6!ped-up! |!ped! [E,G,]2 B,4!ped-up! | %73
!ped!!>(! [A,,E,]6!ped-up!!>)! |"_simile"!ped! [D,G,]6!ped-up! |!ped! [G,,G,]6- | %76
 [G,,G,]6!ped-up! |!ped! [_G,,_G,]6-!ped-up! | [G,,G,]6 || F,,C,!ped! [A,D]4!ped-up! | %80
 F,,D,!ped! B,4!ped-up! | D,,A,,!ped! [F,C]4!ped-up! | G,,D,!ped! [F,=B,]4!ped-up! | %83
 G,,D,!ped! _B,4!ped-up! | z2 [A,B,D]4 | F,,C,!ped! [F,A,]4!ped-up! | z2 B,2 C2 | %87
 F,,C,!ped! F,4!ped-up! | E,B, D2 [B,^C]2 | D,A,!ped! =C4!ped-up! | G,,D,!ped! [F,=B,]4!ped-up! | %91
 G,,D,!ped! _B,4!ped-up! |!ped! z F,- [F,A,]2 [E,G,]2!ped-up! | F,,C,!ped! G,4!ped-up! | %94
 z _E, G,2 F,2 ||!ped! z F, [CD]4!ped-up! |!ped! E,G, [B,^CE]4!ped-up! | %97
!ped! z A,, [F,A,=CE]4!ped-up! |!ped! z A,, [F,A,C]4!ped-up! |!ped! z D, B,4!ped-up! | %100
!ped! z D, B,4!ped-up! |!ped! C,F, [B,C]4!ped-up! |!ped! C,E, A,2 G,2!ped-up! | %103
!ped! z F, [CD]4!ped-up! |!ped! z G, [B,_D]4!ped-up! |!ped! z A,, [D,F,A,C]4!ped-up! | %106
!ped! z D, [F,G,=B,E]4!ped-up! |!ped! z D, [G,_B,]4!ped-up! |!ped! z D, [G,B,C]4!ped-up! | %109
!ped! z2 [B,DF]4!ped-up! |!ped! z C, [G,A,C]4!ped-up! ||!<(! z C,- C,2 F,2!<)! | %112
!ped! z F, [CD]4!ped-up! |!ped! E,G, [B,^CE]4!ped-up! |!ped! z A,, [F,A,CE]4!ped-up! | %115
!ped! z D, [F,G,=B,]2 D,2!ped-up! |!mf!!ped! z D, A,4!ped-up! |!ped! C,E, [G,B,D]4!ped-up! | %118
!ped! C,_E, [G,B,]4!ped-up! |!ped! G,_E, [F,A,B,D]2 !arpeggio![F,_E]2!ped-up! || %120
!ped! z F, [CD]4!ped-up! |!ped! E,G, [B,^CE]4!ped-up! |!ped! z A,, [F,A,CE]4!ped-up! | %123
!ped! z A,, [F,A,C]4!ped-up! |!ped! z D, B,4!ped-up! |!ped! z D, B,4!ped-up! | %126
!ped! C,F, B,4!ped-up! |!ped! z F, B,2 [_E,_G,__B,]2!ped-up! ||!ped! z F, [CDF]4!ped-up! | %129
!ped! z G, [B,_D]4!ped-up! |!ped! z A,, [F,A,C]2 D,2!ped-up! |!ped! z D, [F,G,=B,E]4!ped-up! | %132
!ped! z D, [G,_B,]4!ped-up! |!ped! z D, [G,B,C]4!ped-up! | %134
!ped! D,F,- [F,A,]2!ped! [E,G,]2!ped-up! |!ped! z C, [G,A,C]4!ped-up! || %136
!ped! C,F,- F,2 E,2!ped-up! | F,,,[C,G,]-!ped! [C,G,]4!ped-up! | F,,,[D,F,]-!ped! [D,F,]4!ped-up! | %139
 z2!ped! [CFG]4!ped-up! |!ped! [F,=B,]6!ped-up! |!ped! z D, [F,_B,C]4!ped-up! | %142
!ped! C,E, [G,B,D]4!ped-up! |!ped! E,G, [CE]4!ped-up! |!ped! D,^F, [A,C^F]4!ped-up! | %145
!ped! z D, [G,D]4!ped-up! |!ped! z G, [_A,=B,DF]4!ped-up! |!ped! z A, [CDF]2 [G,_D]2!ped-up! | %148
!ped! =D4 z2!ped-up! |!ped! [D,B,]6!ped-up! |!ped! [F,B,-]4 [E,G,B,]2!ped-up! | %151
!ped! z C, [A,C]F, [_D,G,]2!ped-up! |!ped! [C,F,]6-!ped-up! | [C,F,]4 [B,E]2 | %154
!ped! [C,A,]6-!ped-up! | [C,A,]6 |[K:F][M:3/4] z6 | B,,F,!ped! [CD]4!ped-up! | %158
 A,,E,!ped! [G,^CE]4!ped-up! | D,A,!ped! [CDF]4!ped-up! | G,,D,!ped! !fermata![F,A,D]4-!ped-up! | %161
 [F,A,D]6- | !fermata![F,A,D]6 |!ped! [_G,_D_F]6-!ped-up! | !fermata![G,DF]6 || %165
"_simile" F,,C,!ped! [E,A,C]4!ped-up! | F,,D,!ped! [F,B,C]4!ped-up! | D,,A,,!ped! [A,CF]4!ped-up! | %168
 G,,D,!ped! [F,A,=B,]4!ped-up! | G,,D,!ped! [F,B,]4!ped-up! | C,F,!ped! [B,DF]2 E,2!ped-up! | %171
 F,,C,!ped! [G,A,C]4!ped-up! | C,!ped!F,- F,2 E,2!ped-up! | F,,C,!ped! [G,A,C]4!ped-up! | %174
 E,B,!ped! D2 ^C2!ped-up! | D,A,!ped! [CDF]4!ped-up! | G,,D,!ped! [F,G,=B,]4!ped-up! | %177
 G,,D,!ped! [F,B,]4!ped-up! | C,F,!ped! [B,D]2- [G,B,D]2!ped-up! | F,,C,!ped! [G,A,C]4!ped-up! | %180
 A,,!ped!_E,- E,2 F,2!ped-up! |: B,,F,!ped! [CD]4!ped-up! | A,,E,!ped! [B,_D_F]4!ped-up! | %183
 D,,A,,!ped! [CDF]4!ped-up! | D,,A,,!ped! [DFA]4!ped-up! | G,,D,!ped! [B,DF]4!ped-up! | %186
 G,,D,!ped! [B,DF]4!ped-up! | C,F,!ped! [B,D]4!ped-up! | C,F,!ped! [B,D]2 E,2!ped-up! | %189
 B,,F,!ped! [CD]4!ped-up! | A,,F,!ped! [B,_D_F]4!ped-up! | D,,A,,!ped! [CDF]4!ped-up! | %192
 G,,D,!ped! [=B,DF]4!ped-up! | G,,D,!ped! [B,DF]4!ped-up! | G,,D,!ped! [B,D]4!ped-up! | %195
 C,F, [B,DF]2 E,2 | F,,C,!ped! [F,A,C]4!ped-up! ||1 F,,C, G,,C, A,,C, | B,,F,!ped! [CD]4!ped-up! | %199
 A,,E,!ped! [G,^CE]4!ped-up! | D,A,!ped! [CDF]4!ped-up! | G,,D,!ped! =B,4!ped-up! | %202
 G,,D,!ped! [B,DF]4!ped-up! | C,F,!ped! [B,DF]3 E,!ped-up! | C,G,!ped! [B,_EG]4!ped-up! | %205
 F,,!ped!_E,- E,4!ped-up! :| C,F,!ped! [B,DF]4!ped-up! | z2!ped! A,4!ped-up! | %208
 z2!ped! B,4!ped-up! | z2!ped! C4!ped-up! |!ped! !fermata![G,,D,F,]4 z2!ped-up! | %211
 G,,D,!ped! [F,B,]4!ped-up! | C,F,!ped! [B,D]4!ped-up! | A,,E,!ped! [G,A,C]4!ped-up! | %214
 D,!ped!C- C4!ped-up! | B,,!ped!F,- F,4!ped-up! | =B,,!ped!F,- F,4!ped-up! | %217
 C,F,!ped! [A,C]4!ped-up! |!ped! !fermata![G,,=B,,D,F,]6!ped-up! |!ped! [G,,B,,D,F,]6!ped-up! | %220
!ped! [C,E,G,B,]6!ped-up! | F,,C, [A,C]2 [G,B,]2 |!ped! [F,,C,]6-!ped-up! | [F,,C,]6 | %224
!ped! !arpeggio!!fermata![F,,C,F,]6!ped-up! | z6 | z6 | z6 | z6 | z6 | z6 | z6 | z6 | z6 || z6 | %235
 z6 | z6 | z6 | z6 | z6 | z6 | z6 | z6 | z6 | z6 | z6 | z6 | z6 | z6 | z6 |: z6 | z6 | z6 | z6 | %254
 z6 | z6 | z6 | z6 | z6 | z6 | z6 | z6 | z6 | z6 | z6 ||1 z6 | z6 | z6 | z6 | z6 | z6 | z6 | z6 | %273
 z6 | z6 :|2 z6 || z6 | z6 | z6 | z6 | z6 | z6 | z6 | z6 | z6 | z6 | z6 | z6 | z6 | z6 | z6 | z6 |] %292
 z6 | z6 | z6 | z6 | z6 | z6 | z6 | z6 || z6 | z6 | z6 | z6 | z6 | z6 | z6 | z6 | z6 | z6 | z6 | %311
 z6 | z6 | z6 | z6 | z6 | z6 |: z6 | z6 | z6 | z6 | z6 | z6 | z6 | z6 | z6 | z6 | z6 | z6 | z6 | %330
 z6 | z6 | z6 ||1 z6 | z6 | z6 | z6 | z6 | z6 | z6 | z6 | z6 :|2 z6 || z6 | z6 | z6 | z6 | z6 | %348
 z6 | z6 | z6 | z6 | z6 | z6 | z6 | z6 | z6 | z6 | z6 |] z6 | z6 | z6 | z6 | z6 | z6 | z6 | z6 | %367
 z6 | z6 | z6 | z6 | z6 | z6 | z6 | z6 | z6 | z6 | z6 | z6 | z6 | z6 | z6 | z6 | z6 |: z6 | z6 | %386
 z6 | z6 | z6 | z6 | z6 | z6 | z6 | z6 | z6 | z6 | z6 | z6 | z6 | z6 |1 z6 | z6 | z6 | z6 | z6 | %405
 z6 | z6 | z6 | z6 :|2 z6 || z6 | z6 | z6 | z6 | z6 | z6 | z6 | z6 | z6 | z6 | z6 | z6 | z6 | z6 | %424
 z6 | z6 |] z6 | z6 | z6 | z6 | z6 | z6 | z6 | z6 | z6 | z6 | z6 | z6 | z6 | z6 | z6 | z6 | z6 | %443
 z6 | z6 | z6 | z6 | z6 | z6 | z6 | z6 |: z6 | z6 | z6 | z6 | z6 | z6 | z6 | z6 | z6 | z6 | z6 | %462
 z6 | z6 | z6 | z6 | z6 |1 z6 | z6 | z6 | z6 | z6 | z6 | z6 | z6 | z6 :|2 z6 || z6 | z6 | z6 | z6 | %481
 z6 | z6 | z6 | z6 | z6 | z6 | z6 | z6 | z6 | z6 | z6 | z6 | z6 | z6 | z6 | z6 | z6 | z6 | z6 | %500
 z6 | z6 | z6 | z6 | z6 | z6 | z6 | z6 | z6 | z6 | z6 | z6 | z6 | z6 | z6 | z6 | z6 | z6 |: z6 | %519
 z6 | z6 | z6 | z6 | z6 | z6 | z6 | z6 | z6 | z6 | z6 | z6 | z6 | z6 | z6 |1 z6 | z6 | z6 | z6 | %538
 z6 | z6 | z6 | z6 | z6 :|2 z6 || z6 | z6 | z6 | z6 | z6 | z6 | z6 | z6 | z6 | z6 | z6 | z6 | z6 | %557
 z6 | z6 | z6 |] %560
V:4
 x6 | x6 | x6 | x6 | x6 | x6 | x6 | x6 | x6 || x6 | x6 | x6 | x6 | x6 | x2 [B,D]4 | x6 | x6 | x6 | %18
 x6 | x6 | x6 | x6 | x2 [B,D]4 | x6 | x6 |: z2 [CD]4 | z2 [B,_D_F]4 | z2 [CDF]4 | x6 | x6 | x6 | %31
 x6 | x2 [B,D]4 | z2 [CD]4 | z2 [B,_D]4 | z2 [CDF]4 | z2 [=B,DF]4 | x6 | x6 | x6 | x6 |1 x6 | x6 | %43
 x6 | x6 | z2 [DFA]4 | z2 [!courtesy!_B,DF]4 | z2 [B,-D-F]2 ED | z2 [B,_EG]4 | %49
 z2 [_GAc]2 [=B_e]2 :|2 x2 [!courtesy!_B,D]4 || x6 | x6 | x6 | x6 | x6 | x6 | x6 | x6 | x6 | x6 | %61
 x2 [CFA]2 [EG!courtesy!_B]2 | [C=D^FA]6 | x6 | [B,D]6 | x6 | [A,CF]6- | [A,CF]4 x2 | x6 | %69
 !arpeggio![c'd'f'g'c'']6 |][K:F][M:3/4] x6 | G6 | [^CB]6 | [A=cd]2 [FA]4 | [DF]6 | %75
 e"_l. h."d^cdgf | ^c6 | _E[I:staff +1]_DCD_G_F |[I:staff -1] z4 z (c || z2 [GAc]4 | z2) [DGc]4 | %81
 z2 [EFA]4 | (D6 | D4-!<(! (3DFG!<)! | z2 F2 G2 | z2) [CDG]4 | z2 DF EG | z2 [A,DG]4 | %88
 z2 [EG]B [EA]2 | z2 [EFA]4 | D4- DD | D4!<(! EF!<)! | z2 [B,DF]4 | z2 [A,C]4 | z2 B,D CA, || %95
 [FB]6 | [GA]4- [GA]A | [DFA]6 | F2 [EFA]4 | [DG]2 [CDFA]4 | z2 [CDFA]4 | z2 [DFA]4 | z2 [B,D]4 | %103
 [FB]6 | G2 F3 G | [Ac]2 [EF]4 | [A=B]2- [FAB]4 | G2 [CDF]4 | z2!>(! [DFA]4!>)! | A3 E EG | F6 || %111
 A,2 B,2 C2 | [GB]2 [GB]4 | [^CGB]2 [B^ce]4 | [A=cd]2 [FA]4 | [DF]2 [DFA]4 | [_B,DF]2 [B,DF]4 | %117
 [B,CE]6 | [_E,G,B,]2 [C_EG]4 | [B,_EG]2 [FB]2 [_A_d]2 || [FB]6 | [GAg]6 | [DFA]2- [DFAa]4 | %123
 F2 [EFA]4 | [DG]2 [CDFA]4 | z2 [CDFA]4 | z2!<(! [DFA]4 | B,2 [DF][Cc] [_D_A_d]_a!<)! || ([Bd=a]6 | %129
 G2 F2 G2 | [Ac]2 [EF]4 | [A-=B-a]2 [FABg]4) | G2!>(! [CDF]4 | x2!p! [DFA]4 | A3 E EG | C6 || %136
 z2 [B,-D-FA]2 [B,DEG]2 | c4- cg/f/ | B4- B(B | A2 d3 d | D4-) DD | D4!<(! EF!<)! | A4 EG | %143
 E4-!<(! EF!<)! | B6 | [Fd]2 [FAc]4 | [_A=Bg]4 z2 | [F=A]4 [FGB]2 | x4 z (D | D4!<(! FG!<)! | %150
 A4 cG | G2 F2 _E2 | [A,C]6-) | [A,C]4 [GAc]2 | [FGAc]6- | [FGAc]6 |[K:F][M:3/4] x6 | x6 | x6 | %159
 x6 | x6 | x6 | x6 | x6 | x6 || x6 | x6 | x6 | x6 | x6 | x6 | x6 | x6 | x6 | x6 | x6 | x6 | x6 | %178
 x6 | x6 | x6 |: x6 | x6 | x6 | x6 | x6 | x6 | x6 | x6 | x6 | x6 | x6 | x6 | x6 | x6 | x6 | x6 ||1 %197
 x6 | x6 | x6 | x6 | x6 | x6 | x6 | x6 | x6 :| x6 | z2 [EFA]4 | z2 [DF]4 | z2 [FA]4 | x6 | x6 | %212
 x6 | x6 | z2 [D^FB]4 | z2 [D=Fc]4 | z2 [DF=B]4 | x6 | x6 | x6 | x6 | x6 | x6 | x6 | x6 | x6 | x6 | %227
 x6 | x6 | x6 | x6 | x6 | x6 | x6 || x6 | x6 | x6 | x6 | x6 | x6 | x6 | x6 | x6 | x6 | x6 | x6 | %246
 x6 | x6 | x6 | x6 |: x6 | x6 | x6 | x6 | x6 | x6 | x6 | x6 | x6 | x6 | x6 | x6 | x6 | x6 | x6 ||1 %265
 x6 | x6 | x6 | x6 | x6 | x6 | x6 | x6 | x6 | x6 :|2 x6 || x6 | x6 | x6 | x6 | x6 | x6 | x6 | x6 | %284
 x6 | x6 | x6 | x6 | x6 | x6 | x6 | x6 |] x6 | x6 | x6 | x6 | x6 | x6 | x6 | x6 || x6 | x6 | x6 | %303
 x6 | x6 | x6 | x6 | x6 | x6 | x6 | x6 | x6 | x6 | x6 | x6 | x6 | x6 |: x6 | x6 | x6 | x6 | x6 | %322
 x6 | x6 | x6 | x6 | x6 | x6 | x6 | x6 | x6 | x6 | x6 ||1 x6 | x6 | x6 | x6 | x6 | x6 | x6 | x6 | %341
 x6 :|2 x6 || x6 | x6 | x6 | x6 | x6 | x6 | x6 | x6 | x6 | x6 | x6 | x6 | x6 | x6 | x6 | x6 |] x6 | %360
 x6 | x6 | x6 | x6 | x6 | x6 | x6 | x6 | x6 | x6 | x6 | x6 | x6 | x6 | x6 | x6 | x6 | x6 | x6 | %379
 x6 | x6 | x6 | x6 | x6 |: x6 | x6 | x6 | x6 | x6 | x6 | x6 | x6 | x6 | x6 | x6 | x6 | x6 | x6 | %398
 x6 | x6 |1 x6 | x6 | x6 | x6 | x6 | x6 | x6 | x6 | x6 :|2 x6 || x6 | x6 | x6 | x6 | x6 | x6 | x6 | %417
 x6 | x6 | x6 | x6 | x6 | x6 | x6 | x6 | x6 |] x6 | x6 | x6 | x6 | x6 | x6 | x6 | x6 | x6 | x6 | %436
 x6 | x6 | x6 | x6 | x6 | x6 | x6 | x6 | x6 | x6 | x6 | x6 | x6 | x6 | x6 |: x6 | x6 | x6 | x6 | %455
 x6 | x6 | x6 | x6 | x6 | x6 | x6 | x6 | x6 | x6 | x6 | x6 |1 x6 | x6 | x6 | x6 | x6 | x6 | x6 | %474
 x6 | x6 :|2 x6 || x6 | x6 | x6 | x6 | x6 | x6 | x6 | x6 | x6 | x6 | x6 | x6 | x6 | x6 | x6 | x6 | %493
 x6 | x6 | x6 | x6 | x6 | x6 | x6 | x6 | x6 | x6 | x6 | x6 | x6 | x6 | x6 | x6 | x6 | x6 | x6 | %512
 x6 | x6 | x6 | x6 | x6 | x6 |: x6 | x6 | x6 | x6 | x6 | x6 | x6 | x6 | x6 | x6 | x6 | x6 | x6 | %531
 x6 | x6 | x6 |1 x6 | x6 | x6 | x6 | x6 | x6 | x6 | x6 | x6 :|2 x6 || x6 | x6 | x6 | x6 | x6 | x6 | %550
 x6 | x6 | x6 | x6 | x6 | x6 | x6 | x6 | x6 | x6 |] %560
V:5
 x6 | x6 | x6 | x6 | x6 | x6 | x6 | x6 | x6 || x6 | x6 | x6 | x6 | x6 | x6 | x6 | x6 | x6 | E,6 | %19
 x6 | x6 | x6 | x6 | x6 | F,,6 |: x6 | x6 | x6 | x6 | x6 | x6 | x6 | x6 | x6 | x6 | x6 | x6 | x6 | %38
 x6 | x6 | x6 |1 x6 | x6 | x6 | x6 | x6 | x6 | x6 | x6 | x6 :|2 x6 || x6 | x6 | x6 | x6 | x6 | x6 | %57
 x6 | x6 | x6 | x6 | x6 | x6 | x6 | x6 | F,,6- | F,,6 | F,,4 x2 | F,,6- | F,,6 |][K:F][M:3/4] x6 | %71
 B,,6 | A,,6 | D,,6 | G,,6 | x6 | x6 | x6 | C6 || x6 | x6 | x6 | x6 | x6 | C,F,- F,2 E,2 | x6 | %86
 C,F,- F,2 E,2 | x6 | x6 | x6 | x6 | x6 | C,4 C,2 | x6 | F,,4 A,,2 || B,,6 | A,,6 | D,,6 | D,,6 | %99
 G,,6 | G,,6 | C,,6 | C,,6 | B,,6 | A,,6 | D,,6 | G,,6 | G,,6 | G,,6 | C,F,- [F,A,]2 [E,G,]2 | %110
 F,,6 || [F,,F,]2 [G,,G,]2 [A,,A,]2 | B,,6 | A,,6 | D,,6 | G,,6 | G,,6 | C,,6 | C,,6 | %119
 F,,4 !arpeggio!=A,,2 || [B,,,B,,]6 | A,,6 | D,,6 | D,,6 | G,,6 | G,,6 | C,,6 | [C,,C,]4 _C,2 || %128
 [B,,,B,,]6 | A,,6 | D,,6 | G,,6 | G,,6 | G,,6 | C,,6 | F,,6 || C,,4 C,,2 | z2 [A,DG]4 | %138
 z2 [B,DFA]4 | D,,A,,- A,,4 | G,,6 | G,,6 | C,,6 | A,,6 | x2 _E2 D2 | [B,,,B,,]6 | [=B,,,=B,,]6 | %147
 [C,,C,]4 _E,2 | [=D,^F,C]4 x2 | G,,6 | C,6 | F,,4 F,,2 | F,,6 | F,,4 C,2 | F,,6- | F,,6 | %156
[K:F][M:3/4] x6 | x6 | x6 | x6 | x6 | x6 | x6 | x6 | x6 || x6 | x6 | x6 | x6 | x6 | x6 | x6 | x6 | %173
 x6 | x6 | x6 | x6 | x6 | x6 | x6 | x6 |: x6 | x6 | x6 | x6 | x6 | x6 | x6 | x6 | x6 | x6 | x6 | %192
 x6 | x6 | x6 | x6 | x6 ||1 x6 | x6 | x6 | x6 | x6 | x6 | x6 | x6 | x6 :| x6 | x6 | x6 | x6 | x6 | %211
 x6 | x6 | x6 | x6 | x6 | x6 | x6 | x6 | x6 | x6 | x6 | x6 | x6 | x6 | x6 | x6 | x6 | x6 | x6 | %230
 x6 | x6 | x6 | x6 || x6 | x6 | x6 | x6 | x6 | x6 | x6 | x6 | x6 | x6 | x6 | x6 | x6 | x6 | x6 | %249
 x6 |: x6 | x6 | x6 | x6 | x6 | x6 | x6 | x6 | x6 | x6 | x6 | x6 | x6 | x6 | x6 ||1 x6 | x6 | x6 | %268
 x6 | x6 | x6 | x6 | x6 | x6 | x6 :|2 x6 || x6 | x6 | x6 | x6 | x6 | x6 | x6 | x6 | x6 | x6 | x6 | %287
 x6 | x6 | x6 | x6 | x6 |] x6 | x6 | x6 | x6 | x6 | x6 | x6 | x6 || x6 | x6 | x6 | x6 | x6 | x6 | %306
 x6 | x6 | x6 | x6 | x6 | x6 | x6 | x6 | x6 | x6 | x6 |: x6 | x6 | x6 | x6 | x6 | x6 | x6 | x6 | %325
 x6 | x6 | x6 | x6 | x6 | x6 | x6 | x6 ||1 x6 | x6 | x6 | x6 | x6 | x6 | x6 | x6 | x6 :|2 x6 || %343
 x6 | x6 | x6 | x6 | x6 | x6 | x6 | x6 | x6 | x6 | x6 | x6 | x6 | x6 | x6 | x6 |] x6 | x6 | x6 | %362
 x6 | x6 | x6 | x6 | x6 | x6 | x6 | x6 | x6 | x6 | x6 | x6 | x6 | x6 | x6 | x6 | x6 | x6 | x6 | %381
 x6 | x6 | x6 |: x6 | x6 | x6 | x6 | x6 | x6 | x6 | x6 | x6 | x6 | x6 | x6 | x6 | x6 | x6 | x6 |1 %400
 x6 | x6 | x6 | x6 | x6 | x6 | x6 | x6 | x6 :|2 x6 || x6 | x6 | x6 | x6 | x6 | x6 | x6 | x6 | x6 | %419
 x6 | x6 | x6 | x6 | x6 | x6 | x6 |] x6 | x6 | x6 | x6 | x6 | x6 | x6 | x6 | x6 | x6 | x6 | x6 | %438
 x6 | x6 | x6 | x6 | x6 | x6 | x6 | x6 | x6 | x6 | x6 | x6 | x6 |: x6 | x6 | x6 | x6 | x6 | x6 | %457
 x6 | x6 | x6 | x6 | x6 | x6 | x6 | x6 | x6 | x6 |1 x6 | x6 | x6 | x6 | x6 | x6 | x6 | x6 | x6 :|2 %476
 x6 || x6 | x6 | x6 | x6 | x6 | x6 | x6 | x6 | x6 | x6 | x6 | x6 | x6 | x6 | x6 | x6 | x6 | x6 | %495
 x6 | x6 | x6 | x6 | x6 | x6 | x6 | x6 | x6 | x6 | x6 | x6 | x6 | x6 | x6 | x6 | x6 | x6 | x6 | %514
 x6 | x6 | x6 | x6 |: x6 | x6 | x6 | x6 | x6 | x6 | x6 | x6 | x6 | x6 | x6 | x6 | x6 | x6 | x6 | %533
 x6 |1 x6 | x6 | x6 | x6 | x6 | x6 | x6 | x6 | x6 :|2 x6 || x6 | x6 | x6 | x6 | x6 | x6 | x6 | x6 | %552
 x6 | x6 | x6 | x6 | x6 | x6 | x6 | x6 |] %560
V:6
 x6 | x6 | x6 | x6 | x6 | x6 | x6 | x6 | x6 || x6 | x6 | x6 | x6 | x6 | x6 | x6 | x6 | x6 | x6 | %19
 x6 | x6 | x6 | x6 | x6 | x6 |: x6 | x6 | x6 | x6 | x6 | x6 | x6 | x6 | x6 | x6 | x6 | x6 | x6 | %38
 x6 | x6 | x6 |1 x6 | x6 | x6 | x6 | x6 | x6 | x6 | x6 | x6 :|2 x6 || x6 | x6 | x6 | x6 | x6 | x6 | %57
 x6 | x6 | x6 | x6 | x6 | x6 | x6 | x6 | x6 | x6 | x6 | x6 | x6 |][K:F][M:3/4] x6 | x6 | x6 | x6 | %74
 x6 | x6 | x6 | x6 | x6 || x6 | x6 | x6 | x6 | x6 | x6 | x6 | x6 | x6 | x6 | x6 | x6 | x6 | x6 | %93
 x6 | x6 || x6 | x6 | x6 | x6 | x6 | x6 | x6 | x6 | x6 | c7/2 _d/4c/4 B2 | x6 | x6 | x6 | x6 | x6 | %110
 x6 || x2 B,F C[I:staff +1]F | x6 | x6 | x6 | x6 | x6 | x6 | x6 | x6 || x6 | x6 | x6 | x6 | x6 | %125
 x6 | x6 | x6 || x6 |[I:staff -1] a6 | a6 | x6 | g6- | g4- gf | x6 | x6 || x6 | x6 | x6 | x6 | x6 | %141
 x6 | x6 | x6 | x6 | x6 | x6 | x6 | x6 | x6 | x6 | x6 | x6 | x6 | x6 | x6 |[K:F][M:3/4] x6 | x6 | %158
 x6 | x6 | x6 | x6 | x6 | x6 | x6 || x6 | x6 | x6 | x6 | x6 | x6 | x6 | x6 | x6 | x6 | x6 | x6 | %177
 x6 | x6 | x6 | x6 |: x6 | x6 | x6 | x6 | x6 | x6 | x6 | x6 | x6 | x6 | x6 | x6 | x6 | x6 | x6 | %196
 x6 ||1 x6 | x6 | x6 | x6 | x6 | x6 | x6 | x6 | x6 :| x6 | x6 | x6 | x6 | x6 | x6 | x6 | x6 | x6 | %215
 x6 | x6 | x6 | x6 | x6 | x6 | x6 | x6 | x6 | x6 | x6 | x6 | x6 | x6 | x6 | x6 | x6 | x6 | x6 || %234
 x6 | x6 | x6 | x6 | x6 | x6 | x6 | x6 | x6 | x6 | x6 | x6 | x6 | x6 | x6 | x6 |: x6 | x6 | x6 | %253
 x6 | x6 | x6 | x6 | x6 | x6 | x6 | x6 | x6 | x6 | x6 | x6 ||1 x6 | x6 | x6 | x6 | x6 | x6 | x6 | %272
 x6 | x6 | x6 :|2 x6 || x6 | x6 | x6 | x6 | x6 | x6 | x6 | x6 | x6 | x6 | x6 | x6 | x6 | x6 | x6 | %291
 x6 |] x6 | x6 | x6 | x6 | x6 | x6 | x6 | x6 || x6 | x6 | x6 | x6 | x6 | x6 | x6 | x6 | x6 | x6 | %310
 x6 | x6 | x6 | x6 | x6 | x6 | x6 |: x6 | x6 | x6 | x6 | x6 | x6 | x6 | x6 | x6 | x6 | x6 | x6 | %329
 x6 | x6 | x6 | x6 ||1 x6 | x6 | x6 | x6 | x6 | x6 | x6 | x6 | x6 :|2 x6 || x6 | x6 | x6 | x6 | %347
 x6 | x6 | x6 | x6 | x6 | x6 | x6 | x6 | x6 | x6 | x6 | x6 |] x6 | x6 | x6 | x6 | x6 | x6 | x6 | %366
 x6 | x6 | x6 | x6 | x6 | x6 | x6 | x6 | x6 | x6 | x6 | x6 | x6 | x6 | x6 | x6 | x6 | x6 |: x6 | %385
 x6 | x6 | x6 | x6 | x6 | x6 | x6 | x6 | x6 | x6 | x6 | x6 | x6 | x6 | x6 |1 x6 | x6 | x6 | x6 | %404
 x6 | x6 | x6 | x6 | x6 :|2 x6 || x6 | x6 | x6 | x6 | x6 | x6 | x6 | x6 | x6 | x6 | x6 | x6 | x6 | %423
 x6 | x6 | x6 |] x6 | x6 | x6 | x6 | x6 | x6 | x6 | x6 | x6 | x6 | x6 | x6 | x6 | x6 | x6 | x6 | %442
 x6 | x6 | x6 | x6 | x6 | x6 | x6 | x6 | x6 |: x6 | x6 | x6 | x6 | x6 | x6 | x6 | x6 | x6 | x6 | %461
 x6 | x6 | x6 | x6 | x6 | x6 |1 x6 | x6 | x6 | x6 | x6 | x6 | x6 | x6 | x6 :|2 x6 || x6 | x6 | x6 | %480
 x6 | x6 | x6 | x6 | x6 | x6 | x6 | x6 | x6 | x6 | x6 | x6 | x6 | x6 | x6 | x6 | x6 | x6 | x6 | %499
 x6 | x6 | x6 | x6 | x6 | x6 | x6 | x6 | x6 | x6 | x6 | x6 | x6 | x6 | x6 | x6 | x6 | x6 | x6 |: %518
 x6 | x6 | x6 | x6 | x6 | x6 | x6 | x6 | x6 | x6 | x6 | x6 | x6 | x6 | x6 | x6 |1 x6 | x6 | x6 | %537
 x6 | x6 | x6 | x6 | x6 | x6 :|2 x6 || x6 | x6 | x6 | x6 | x6 | x6 | x6 | x6 | x6 | x6 | x6 | x6 | %556
 x6 | x6 | x6 | x6 |] %560
V:7
 x6 | x6 | x6 | x6 | x6 | x6 | x6 | x6 | x6 || x6 | x6 | x6 | x6 | x6 | x6 | x6 | x6 | x6 | x6 | %19
 x6 | x6 | x6 | x6 | x6 | x6 |: x6 | x6 | x6 | x6 | x6 | x6 | x6 | x6 | x6 | x6 | x6 | x6 | x6 | %38
 x6 | x6 | x6 |1 x6 | x6 | x6 | x6 | x6 | x6 | x6 | x6 | x6 :|2 x6 || x6 | x6 | x6 | x6 | x6 | x6 | %57
 x6 | x6 | x6 | x6 | x6 | x6 | x6 | x6 | x6 | x6 | x6 | x6 | x6 |][K:F][M:3/4] x6 | x6 | x6 | x6 | %74
 x6 | x6 | x6 | x6 | x6 || x6 | x6 | x6 | x6 | x6 | x6 | x6 | x6 | x6 | x6 | x6 | x6 | x6 | x6 | %93
 x6 | x6 || x6 | x6 | x6 | x6 | x6 | x6 | x6 | x6 | x6 | x6 | x6 | x6 | x6 | x6 | C,,6 | x6 || x6 | %112
 x6 | x6 | x6 | x6 | x6 | x6 | x6 | x6 || x6 | x6 | x6 | x6 | x6 | x6 | x6 | x6 || x6 | x6 | x6 | %131
 x6 | x6 | x6 | x2 [B,DF]4 | x6 || x6 | x6 | x6 | x6 | x6 | x6 | x6 | x6 | D,,6 | x6 | x6 | x6 | %148
 x6 | x6 | x6 | x6 | x6 | x6 | x6 | x6 |[K:F][M:3/4] x6 | x6 | x6 | x6 | x6 | x6 | x6 | x6 | x6 || %165
 x6 | x6 | x6 | x6 | x6 | x6 | x6 | x6 | x6 | x6 | x6 | x6 | x6 | x6 | x6 | x6 |: x6 | x6 | x6 | %184
 x6 | x6 | x6 | x6 | x6 | x6 | x6 | x6 | x6 | x6 | x6 | x6 | x6 ||1 x6 | x6 | x6 | x6 | x6 | x6 | %203
 x6 | x6 | x6 :| x6 | x6 | x6 | x6 | x6 | x6 | x6 | x6 | x6 | x6 | x6 | x6 | x6 | x6 | x6 | x6 | %222
 x6 | x6 | x6 | x6 | x6 | x6 | x6 | x6 | x6 | x6 | x6 | x6 || x6 | x6 | x6 | x6 | x6 | x6 | x6 | %241
 x6 | x6 | x6 | x6 | x6 | x6 | x6 | x6 | x6 |: x6 | x6 | x6 | x6 | x6 | x6 | x6 | x6 | x6 | x6 | %260
 x6 | x6 | x6 | x6 | x6 ||1 x6 | x6 | x6 | x6 | x6 | x6 | x6 | x6 | x6 | x6 :|2 x6 || x6 | x6 | %278
 x6 | x6 | x6 | x6 | x6 | x6 | x6 | x6 | x6 | x6 | x6 | x6 | x6 | x6 |] x6 | x6 | x6 | x6 | x6 | %297
 x6 | x6 | x6 || x6 | x6 | x6 | x6 | x6 | x6 | x6 | x6 | x6 | x6 | x6 | x6 | x6 | x6 | x6 | x6 | %316
 x6 |: x6 | x6 | x6 | x6 | x6 | x6 | x6 | x6 | x6 | x6 | x6 | x6 | x6 | x6 | x6 | x6 ||1 x6 | x6 | %335
 x6 | x6 | x6 | x6 | x6 | x6 | x6 :|2 x6 || x6 | x6 | x6 | x6 | x6 | x6 | x6 | x6 | x6 | x6 | x6 | %354
 x6 | x6 | x6 | x6 | x6 |] x6 | x6 | x6 | x6 | x6 | x6 | x6 | x6 | x6 | x6 | x6 | x6 | x6 | x6 | %373
 x6 | x6 | x6 | x6 | x6 | x6 | x6 | x6 | x6 | x6 | x6 |: x6 | x6 | x6 | x6 | x6 | x6 | x6 | x6 | %392
 x6 | x6 | x6 | x6 | x6 | x6 | x6 | x6 |1 x6 | x6 | x6 | x6 | x6 | x6 | x6 | x6 | x6 :|2 x6 || x6 | %411
 x6 | x6 | x6 | x6 | x6 | x6 | x6 | x6 | x6 | x6 | x6 | x6 | x6 | x6 | x6 |] x6 | x6 | x6 | x6 | %430
 x6 | x6 | x6 | x6 | x6 | x6 | x6 | x6 | x6 | x6 | x6 | x6 | x6 | x6 | x6 | x6 | x6 | x6 | x6 | %449
 x6 | x6 |: x6 | x6 | x6 | x6 | x6 | x6 | x6 | x6 | x6 | x6 | x6 | x6 | x6 | x6 | x6 | x6 |1 x6 | %468
 x6 | x6 | x6 | x6 | x6 | x6 | x6 | x6 :|2 x6 || x6 | x6 | x6 | x6 | x6 | x6 | x6 | x6 | x6 | x6 | %487
 x6 | x6 | x6 | x6 | x6 | x6 | x6 | x6 | x6 | x6 | x6 | x6 | x6 | x6 | x6 | x6 | x6 | x6 | x6 | %506
 x6 | x6 | x6 | x6 | x6 | x6 | x6 | x6 | x6 | x6 | x6 | x6 |: x6 | x6 | x6 | x6 | x6 | x6 | x6 | %525
 x6 | x6 | x6 | x6 | x6 | x6 | x6 | x6 | x6 |1 x6 | x6 | x6 | x6 | x6 | x6 | x6 | x6 | x6 :|2 x6 || %544
 x6 | x6 | x6 | x6 | x6 | x6 | x6 | x6 | x6 | x6 | x6 | x6 | x6 | x6 | x6 | x6 |] %560
V:8
 z6 | z6 | z6 | z6 | z6 | z6 | z6 | z6 | z6 || z6 | z6 | z6 | z6 | z6 | z6 | z6 | z6 | z6 | z6 | %19
 z6 | z6 | z6 | z6 | z6 | z6 |: z6 | z6 | z6 | z6 | z6 | z6 | z6 | z6 | z6 | z6 | z6 | z6 | z6 | %38
 z6 | z6 | z6 |1 z6 | z6 | z6 | z6 | z6 | z6 | z6 | z6 | z6 :|2 z6 || z6 | z6 | z6 | z6 | z6 | z6 | %57
 z6 | z6 | z6 | z6 | z6 | z6 | z6 | z6 | z6 | z6 | z6 | z6 | z6 |][K:F][M:3/4] z6 | z6 | z6 | z6 | %74
 z6 | z6 | z6 | z6 | z6 || z6 | z6 | z6 | z6 | z6 | z6 | z6 | z6 | z6 | z6 | z6 | z6 | z6 | z6 | %93
 z6 | z6 || z6 | z6 | z6 | z6 | z6 | z6 | z6 | z6 | z6 | z6 | z6 | z6 | z6 | z6 | z6 | z6 || z6 | %112
 z6 | z6 | z6 | z6 | z6 | z6 | z6 | z6 || z6 | z6 | z6 | z6 | z6 | z6 | z6 | z6 || z6 | z6 | z6 | %131
 z6 | z6 | z6 | z6 | z6 || z6 | z6 | z6 | z6 | z6 | z6 | z6 | z6 | z6 | z6 | z6 | z6 | z6 | z6 | %150
 z6 | z6 | z6 | z6 | z6 | z6 |[K:F][M:3/4] z6 | z6 | z6 | z6 | z6 | z6 | z6 | z6 | z6 || z6 | z6 | %167
 z6 | z6 | z6 | z6 | z6 | z6 | z6 | z6 | z6 | z6 | z6 | z6 | z6 | z6 |: z6 | z6 | z6 | z6 | z6 | %186
 z6 | z6 | z6 | z6 | z6 | z6 | z6 | z6 | z6 | z6 | z6 ||1 z6 | z6 | z6 | z6 | z6 | z6 | z6 | z6 | %205
 z6 :| z6 | z6 | z6 | z6 | z6 | z6 | z6 | z6 | z6 | z6 | z6 | z6 | z6 | z6 | z6 | z6 | z6 | z6 | %224
 z6 | z3/2 F/- F/GA/ B/c/d/e/ |"Bb" [B,df]2 e2 d2 |"A7" [A,G^c]2 a2 g2 |"Dm7" [Df]A d2 c2 | %229
"G9" [G,=B]F [da]4 |"G7#11" ([G,F=Be]d) ^cd gf | [G,F^c]6 |"Gb#11" ([_G,EB_e]_d) cd _g=e | %233
 !fermata![_G,Ec]6 ||"F" c'2 g'3 f' |"Gm" b4- bb |"Dm7" a2 !slide!d'3 d' |"G9" d6 |"Gm7" d4 fg | %239
"Gm9/C" a2"C7" g2- g!slide!c'/d'/ |"Fmaj7" c'6 |"C7" C(c d)f [Ge]g |"F" c'4 g'f' |"Gm" b4- bb | %244
"Dm7" a2 !slide!d'3 d' |"G9" d6 |"Gm7" d4 fg |"Gm9/C" a2 g2"C7sus4" fg |"F" f6 |"F7" FA _ef eA |: %250
"Bbmaj7" f6 |"A7" e6 |"Dm9" e3 d AF |"G7" e2 d4 |"Gm7" c4 Bd | (A<G-) G3- G/F/ |"C7" G3 (E F)A | %257
 G6 |"Bbmaj7" f6 |"A7" e4- ee |"Dm9" e3 d AF |"G7" e2 d3 c |"Gm7" B3 (A GF) | (DE-) EE FG | %264
"C7" A3 F FG ||1"F" F6 | [F,F]C F/F/G/A/ B/c/d/e/ |"Bbmaj7" [B,df]2 e2 d2 |"A7" [A,G^c]2 a2 g2 | %269
"Dm7" [Df]A d2 c2 |"G9" [G,=B]F [da]3 a |"Gm9" [G,Ba]B gf [Bd]B |"Gm9/C" [CBa]B gf [Bd]B | %273
"Cm" [C_e]G c(d e)g |"Gbm/F" [Fb]d' ([_d_gbf']_e') _d'=b :|2"F" F4- Fc' || c'4 g'f' |"Gm" b4- bb | %278
"Dm7" a2 d'2 d'2 |"G9" d4- dd |"Gm9" d4 fg |"Gm9/C" a4 fg |"Am7" e4 ec'- |"D7b9" c'6 | %284
"Bbmaj7" f4 ef |"A7sus4" ed- d3 e |"F" d2 c A2 c |"Dm" !fermata!d6 |"Gm7" d4 fg |"Bbmaj7" a4 c'a | %290
"F" g2 f2"C7" e2 |"F" f6 |] z6 | z6 | z6 | z6 | z6 | z6 | z6 | z6 || z6 | z6 | z6 | z6 | z6 | z6 | %306
 z6 | z6 | z6 | z6 | z6 | z6 | z6 | z6 | z6 | z6 | z6 |: z6 | z6 | z6 | z6 | z6 | z6 | z6 | z6 | %325
 z6 | z6 | z6 | z6 | z6 | z6 | z6 | z6 ||1 z6 | z6 | z6 | z6 | z6 | z6 | z6 | z6 | z6 :|2 z6 || %343
 z6 | z6 | z6 | z6 | z6 | z6 | z6 | z6 | z6 | z6 | z6 | z6 | z6 | z6 | z6 | z6 |] z6 | z6 | z6 | %362
 z6 | z6 | z6 | z6 | z6 | z6 | z6 | z6 | z6 | z6 | z6 | z6 | z6 | z6 | z6 | z6 | z6 | z6 | z6 | %381
 z6 | z6 | z6 |: z6 | z6 | z6 | z6 | z6 | z6 | z6 | z6 | z6 | z6 | z6 | z6 | z6 | z6 | z6 | z6 |1 %400
 z6 | z6 | z6 | z6 | z6 | z6 | z6 | z6 | z6 :|2 z6 || z6 | z6 | z6 | z6 | z6 | z6 | z6 | z6 | z6 | %419
 z6 | z6 | z6 | z6 | z6 | z6 | z6 |] z6 | z6 | z6 | z6 | z6 | z6 | z6 | z6 | z6 | z6 | z6 | z6 | %438
 z6 | z6 | z6 | z6 | z6 | z6 | z6 | z6 | z6 | z6 | z6 | z6 | z6 |: z6 | z6 | z6 | z6 | z6 | z6 | %457
 z6 | z6 | z6 | z6 | z6 | z6 | z6 | z6 | z6 | z6 |1 z6 | z6 | z6 | z6 | z6 | z6 | z6 | z6 | z6 :|2 %476
 z6 || z6 | z6 | z6 | z6 | z6 | z6 | z6 | z6 | z6 | z6 | z6 | z6 | z6 | z6 | z6 | z6 | z6 | z6 | %495
 z6 | z6 | z6 | z6 | z6 | z6 | z6 | z6 | z6 | z6 | z6 | z6 | z6 | z6 | z6 | z6 | z6 | z6 | z6 | %514
 z6 | z6 | z6 | z6 |: z6 | z6 | z6 | z6 | z6 | z6 | z6 | z6 | z6 | z6 | z6 | z6 | z6 | z6 | z6 | %533
 z6 |1 z6 | z6 | z6 | z6 | z6 | z6 | z6 | z6 | z6 :|2 z6 || z6 | z6 | z6 | z6 | z6 | z6 | z6 | z6 | %552
 z6 | z6 | z6 | z6 | z6 | z6 | z6 | z6 |] %560
V:9
 x6 | x6 | x6 | x6 | x6 | x6 | x6 | x6 | x6 || x6 | x6 | x6 | x6 | x6 | x6 | x6 | x6 | x6 | x6 | %19
 x6 | x6 | x6 | x6 | x6 | x6 |: x6 | x6 | x6 | x6 | x6 | x6 | x6 | x6 | x6 | x6 | x6 | x6 | x6 | %38
 x6 | x6 | x6 |1 x6 | x6 | x6 | x6 | x6 | x6 | x6 | x6 | x6 :|2 x6 || x6 | x6 | x6 | x6 | x6 | x6 | %57
 x6 | x6 | x6 | x6 | x6 | x6 | x6 | x6 | x6 | x6 | x6 | x6 | x6 |][K:F][M:3/4] x6 | x6 | x6 | x6 | %74
 x6 | x6 | x6 | x6 | x6 || x6 | x6 | x6 | x6 | x6 | x6 | x6 | x6 | x6 | x6 | x6 | x6 | x6 | x6 | %93
 x6 | x6 || x6 | x6 | x6 | x6 | x6 | x6 | x6 | x6 | x6 | x6 | x6 | x6 | x6 | x6 | x6 | x6 || x6 | %112
 x6 | x6 | x6 | x6 | x6 | x6 | x6 | x6 || x6 | x6 | x6 | x6 | x6 | x6 | x6 | x6 || x6 | x6 | x6 | %131
 x6 | x6 | x6 | x6 | x6 || x6 | x6 | x6 | x6 | x6 | x6 | x6 | x6 | x6 | x6 | x6 | x6 | x6 | x6 | %150
 x6 | x6 | x6 | x6 | x6 | x6 |[K:F][M:3/4] x6 | x6 | x6 | x6 | x6 | x6 | x6 | x6 | x6 || x6 | x6 | %167
 x6 | x6 | x6 | x6 | x6 | x6 | x6 | x6 | x6 | x6 | x6 | x6 | x6 | x6 |: x6 | x6 | x6 | x6 | x6 | %186
 x6 | x6 | x6 | x6 | x6 | x6 | x6 | x6 | x6 | x6 | x6 ||1 x6 | x6 | x6 | x6 | x6 | x6 | x6 | x6 | %205
 x6 :| x6 | x6 | x6 | x6 | x6 | x6 | x6 | x6 | x6 | x6 | x6 | x6 | x6 | x6 | x6 | x6 | x6 | x6 | %224
 x6 | x6 | x6 | x6 | x6 | x6 | x6 | x6 | x6 | z4 z c' || [Ffa]2 [Aac']4 | [Gdg]d g4 | %236
 [Dcf]c !slide![cfa]2 a2 | [G,F=B]2 [da]4 | [G,FB]F Bd z2 | [Cd]B eB e2 | [Fcea]c ea ec | x6 | %242
 [Ffa]4 [Aac']2 | [Gdg]d g4 | [Dcf]c !slide![cfa]2 a2 | [G,F=B]2 [da]4 | [G,FB]F Bd z2 | %247
 [Cd]B eB fg | FA cA cA | x6 |: [B,Ad]A dA dA | [A,G^c]G cG cG | DA cd AF | [G,=B]F BF BF | %254
 G,D FD F2 | G,D GD GD | CE GE FA | CE GE GE | [B,Ad]A dA dA | [A,G^c]G cG cG | DA cd AF | %261
 [G,=B]F BF BF | G,D- [DG]A GF | G,2 F2 FG | CE AF FG ||1 F,C FC FC | x6 | x6 | x6 | x6 | x6 | x6 | %272
 x6 | x6 | x6 :|2 x6 || [Ffa]4 [Aac']2 | [Gdg]6 | [Dcf]2 [fa]2 [fa]2 | [G,F=B]6 | [G,FB]6 | %281
 [CBd]6 | [A,Gc]4- [A,Gc][D_e]- | [De]6 | [B,Ad]6 | [A,G]6 | [Fc]6 | [DF]6 | [G,FB]6 | [A,d]6 | %290
 [FA]4 [CB]2 | [FAc]6 |] x6 | x6 | x6 | x6 | x6 | x6 | x6 | x6 || x6 | x6 | x6 | x6 | x6 | x6 | %306
 x6 | x6 | x6 | x6 | x6 | x6 | x6 | x6 | x6 | x6 | x6 |: x6 | x6 | x6 | x6 | x6 | x6 | x6 | x6 | %325
 x6 | x6 | x6 | x6 | x6 | x6 | x6 | x6 ||1 x6 | x6 | x6 | x6 | x6 | x6 | x6 | x6 | x6 :|2 x6 || %343
 x6 | x6 | x6 | x6 | x6 | x6 | x6 | x6 | x6 | x6 | x6 | x6 | x6 | x6 | x6 | x6 |] x6 | x6 | x6 | %362
 x6 | x6 | x6 | x6 | x6 | x6 | x6 | x6 | x6 | x6 | x6 | x6 | x6 | x6 | x6 | x6 | x6 | x6 | x6 | %381
 x6 | x6 | x6 |: x6 | x6 | x6 | x6 | x6 | x6 | x6 | x6 | x6 | x6 | x6 | x6 | x6 | x6 | x6 | x6 |1 %400
 x6 | x6 | x6 | x6 | x6 | x6 | x6 | x6 | x6 :|2 x6 || x6 | x6 | x6 | x6 | x6 | x6 | x6 | x6 | x6 | %419
 x6 | x6 | x6 | x6 | x6 | x6 | x6 |] x6 | x6 | x6 | x6 | x6 | x6 | x6 | x6 | x6 | x6 | x6 | x6 | %438
 x6 | x6 | x6 | x6 | x6 | x6 | x6 | x6 | x6 | x6 | x6 | x6 | x6 |: x6 | x6 | x6 | x6 | x6 | x6 | %457
 x6 | x6 | x6 | x6 | x6 | x6 | x6 | x6 | x6 | x6 |1 x6 | x6 | x6 | x6 | x6 | x6 | x6 | x6 | x6 :|2 %476
 x6 || x6 | x6 | x6 | x6 | x6 | x6 | x6 | x6 | x6 | x6 | x6 | x6 | x6 | x6 | x6 | x6 | x6 | x6 | %495
 x6 | x6 | x6 | x6 | x6 | x6 | x6 | x6 | x6 | x6 | x6 | x6 | x6 | x6 | x6 | x6 | x6 | x6 | x6 | %514
 x6 | x6 | x6 | x6 |: x6 | x6 | x6 | x6 | x6 | x6 | x6 | x6 | x6 | x6 | x6 | x6 | x6 | x6 | x6 | %533
 x6 |1 x6 | x6 | x6 | x6 | x6 | x6 | x6 | x6 | x6 :|2 x6 || x6 | x6 | x6 | x6 | x6 | x6 | x6 | x6 | %552
 x6 | x6 | x6 | x6 | x6 | x6 | x6 | x6 |] %560
V:10
 x6 | x6 | x6 | x6 | x6 | x6 | x6 | x6 | x6 || x6 | x6 | x6 | x6 | x6 | x6 | x6 | x6 | x6 | x6 | %19
 x6 | x6 | x6 | x6 | x6 | x6 |: x6 | x6 | x6 | x6 | x6 | x6 | x6 | x6 | x6 | x6 | x6 | x6 | x6 | %38
 x6 | x6 | x6 |1 x6 | x6 | x6 | x6 | x6 | x6 | x6 | x6 | x6 :|2 x6 || x6 | x6 | x6 | x6 | x6 | x6 | %57
 x6 | x6 | x6 | x6 | x6 | x6 | x6 | x6 | x6 | x6 | x6 | x6 | x6 |][K:F][M:3/4] x6 | x6 | x6 | x6 | %74
 x6 | x6 | x6 | x6 | x6 || x6 | x6 | x6 | x6 | x6 | x6 | x6 | x6 | x6 | x6 | x6 | x6 | x6 | x6 | %93
 x6 | x6 || x6 | x6 | x6 | x6 | x6 | x6 | x6 | x6 | x6 | x6 | x6 | x6 | x6 | x6 | x6 | x6 || x6 | %112
 x6 | x6 | x6 | x6 | x6 | x6 | x6 | x6 || x6 | x6 | x6 | x6 | x6 | x6 | x6 | x6 || x6 | x6 | x6 | %131
 x6 | x6 | x6 | x6 | x6 || x6 | x6 | x6 | x6 | x6 | x6 | x6 | x6 | x6 | x6 | x6 | x6 | x6 | x6 | %150
 x6 | x6 | x6 | x6 | x6 | x6 |[K:F][M:3/4] x6 | x6 | x6 | x6 | x6 | x6 | x6 | x6 | x6 || x6 | x6 | %167
 x6 | x6 | x6 | x6 | x6 | x6 | x6 | x6 | x6 | x6 | x6 | x6 | x6 | x6 |: x6 | x6 | x6 | x6 | x6 | %186
 x6 | x6 | x6 | x6 | x6 | x6 | x6 | x6 | x6 | x6 | x6 ||1 x6 | x6 | x6 | x6 | x6 | x6 | x6 | x6 | %205
 x6 :| x6 | x6 | x6 | x6 | x6 | x6 | x6 | x6 | x6 | x6 | x6 | x6 | x6 | x6 | x6 | x6 | x6 | x6 | %224
 x6 | x3/2 !5!F,/- !5!x/ !4!G, !4!A,/ !4!B,/ !3!C/ !3!D/ !3!E/ | [!6!B,,!3!D!2!F]2 !3!E2 !3!D2 | %227
 [!6!A,,!4!G,!3!^C]2 !1!A2 !2!G2 | [!5!D,!2!F] !4!A, !3!D2 !3!C2 | %229
 [!6!G,,!3!=B,] !4!F, [!2!D!1!A]4 | ([!6!G,,!4!F,!3!=B,!2!E] !2!D) !3!^C !2!D !1!G !2!F | %231
 [!6!G,,!4!F,!3!^C]6 | ([!6!_G,,!4!E,!3!B,!2!_E] !2!_D) !3!C !2!D !1!_G !2!=E | %233
 !fermata![!6!_G,,!4!E,!3!C]6 || !1!c2 !1!g3 !1!f | !1!B4- !1!B !1!B | !1!A2 !slide!!1!d3 !1!d | %237
 !2!D6 | !2!D4 !2!F !1!G | !1!A2 !1!G2- !1!x !slide!!1!c/ !1!d/ | !1!c6 | %241
 !6!C, (!4!C !4!D) !3!F [!5!G,!3!E] !2!G | !1!c4 !1!g !1!f | !1!B4- !1!x !1!B | %244
 !1!A2 !slide!!1!d3 !1!d | !2!D6 | !2!D4 !2!F !1!G | !1!A2 !1!G2 !2!F !1!G | !2!F6 | %249
 !5!F, !4!A, !3!_E !2!F !3!E !4!A, |: !2!F6 | !2!E6 | !2!E3 !3!D !4!A, !5!F, | !2!E2 !2!D4 | %254
 !3!C4 !3!B, !2!D | (!4!A,/ !4!G,3/2) x3 x/ !4!F,/ | !4!G,3 (!5!E, !5!F,) !4!A, | !4!G,6 | !2!F6 | %259
 !2!E4 x !2!E | !2!E3 !3!D !4!A, !5!F, | !2!E2 !2!D3 !3!C | !3!B,3 (!4!A, !4!G, !4!F,) | %263
 (!5!D, !5!E,-) !5!x !5!E, !5!F, !4!G, | !4!A,3 !5!F, !4!x !3!x ||1 !4!F,6 | %266
 [!6!F,,!4!F,] !5!C, !4!F,/ !5!F,/ !4!G,/ !4!A,/ !4!B,/ !3!C/ !3!D/ !3!E/ | %267
 [!6!B,,!3!D!2!F]2 !3!E2 !3!D2 | [!6!A,,!4!G,!3!^C]2 !1!A2 !2!G2 | [!5!D,!2!F] !4!A, !3!D2 !3!C2 | %270
 [!6!G,,!3!=B,] !4!F, [!2!D!1!A]3 !1!A | [!6!G,,!3!B,!1!A] !3!B, !1!G !2!F [!3!B,!2!D] !3!B, | %272
 [!5!C,!3!B,!1!A] !3!B, !1!G !2!F [!3!B,!2!D] !3!B, | [!5!C,!2!_E] !4!G, !3!C (!2!D !2!E) !1!G | %274
 [!5!F,!2!B] !1!d ([!4!_D!3!_G!2!B!1!f] !1!_e) !2!_d !2!=B :|2 !4!F,4- !4!F, !1!c || %276
 !1!c4 !1!g !1!f | !1!B4 x !1!B | !1!A2 !1!d2 !1!d2 | !2!D4 x !2!D | !2!D4 !2!F !1!G | %281
 !1!A4 !2!F !1!G | !2!E4 x !1!c | !1!c6 | !2!F4 !2!E !2!F | !2!E !3!D x3 !2!E | %286
 !3!D2 !4!C !4!A,2 !4!C | !fermata!!2!D6 | !2!D4 !2!F !1!G | !1!A4 !1!c !1!A | !2!G2 !3!F2 !2!E2 | %291
 !2!F6 |] x6 | x6 | x6 | x6 | x6 | x6 | x6 | x6 || x6 | x6 | x6 | x6 | x6 | x6 | x6 | x6 | x6 | %309
 x6 | x6 | x6 | x6 | x6 | x6 | x6 | x6 |: x6 | x6 | x6 | x6 | x6 | x6 | x6 | x6 | x6 | x6 | x6 | %328
 x6 | x6 | x6 | x6 | x6 ||1 x6 | x6 | x6 | x6 | x6 | x6 | x6 | x6 | x6 :|2 x6 || x6 | x6 | x6 | %346
 x6 | x6 | x6 | x6 | x6 | x6 | x6 | x6 | x6 | x6 | x6 | x6 | x6 |] x6 | x6 | x6 | x6 | x6 | x6 | %365
 x6 | x6 | x6 | x6 | x6 | x6 | x6 | x6 | x6 | x6 | x6 | x6 | x6 | x6 | x6 | x6 | x6 | x6 | x6 |: %384
 x6 | x6 | x6 | x6 | x6 | x6 | x6 | x6 | x6 | x6 | x6 | x6 | x6 | x6 | x6 | x6 |1 x6 | x6 | x6 | %403
 x6 | x6 | x6 | x6 | x6 | x6 :|2 x6 || x6 | x6 | x6 | x6 | x6 | x6 | x6 | x6 | x6 | x6 | x6 | x6 | %422
 x6 | x6 | x6 | x6 |] x6 | x6 | x6 | x6 | x6 | x6 | x6 | x6 | x6 | x6 | x6 | x6 | x6 | x6 | x6 | %441
 x6 | x6 | x6 | x6 | x6 | x6 | x6 | x6 | x6 | x6 |: x6 | x6 | x6 | x6 | x6 | x6 | x6 | x6 | x6 | %460
 x6 | x6 | x6 | x6 | x6 | x6 | x6 |1 x6 | x6 | x6 | x6 | x6 | x6 | x6 | x6 | x6 :|2 x6 || x6 | x6 | %479
 x6 | x6 | x6 | x6 | x6 | x6 | x6 | x6 | x6 | x6 | x6 | x6 | x6 | x6 | x6 | x6 | x6 | x6 | x6 | %498
 x6 | x6 | x6 | x6 | x6 | x6 | x6 | x6 | x6 | x6 | x6 | x6 | x6 | x6 | x6 | x6 | x6 | x6 | x6 | %517
 x6 |: x6 | x6 | x6 | x6 | x6 | x6 | x6 | x6 | x6 | x6 | x6 | x6 | x6 | x6 | x6 | x6 |1 x6 | x6 | %536
 x6 | x6 | x6 | x6 | x6 | x6 | x6 :|2 x6 || x6 | x6 | x6 | x6 | x6 | x6 | x6 | x6 | x6 | x6 | x6 | %555
 x6 | x6 | x6 | x6 | x6 |] %560
V:11
 x6 | x6 | x6 | x6 | x6 | x6 | x6 | x6 | x6 || x6 | x6 | x6 | x6 | x6 | x6 | x6 | x6 | x6 | x6 | %19
 x6 | x6 | x6 | x6 | x6 | x6 |: x6 | x6 | x6 | x6 | x6 | x6 | x6 | x6 | x6 | x6 | x6 | x6 | x6 | %38
 x6 | x6 | x6 |1 x6 | x6 | x6 | x6 | x6 | x6 | x6 | x6 | x6 :|2 x6 || x6 | x6 | x6 | x6 | x6 | x6 | %57
 x6 | x6 | x6 | x6 | x6 | x6 | x6 | x6 | x6 | x6 | x6 | x6 | x6 |][K:F][M:3/4] x6 | x6 | x6 | x6 | %74
 x6 | x6 | x6 | x6 | x6 || x6 | x6 | x6 | x6 | x6 | x6 | x6 | x6 | x6 | x6 | x6 | x6 | x6 | x6 | %93
 x6 | x6 || x6 | x6 | x6 | x6 | x6 | x6 | x6 | x6 | x6 | x6 | x6 | x6 | x6 | x6 | x6 | x6 || x6 | %112
 x6 | x6 | x6 | x6 | x6 | x6 | x6 | x6 || x6 | x6 | x6 | x6 | x6 | x6 | x6 | x6 || x6 | x6 | x6 | %131
 x6 | x6 | x6 | x6 | x6 || x6 | x6 | x6 | x6 | x6 | x6 | x6 | x6 | x6 | x6 | x6 | x6 | x6 | x6 | %150
 x6 | x6 | x6 | x6 | x6 | x6 |[K:F][M:3/4] x6 | x6 | x6 | x6 | x6 | x6 | x6 | x6 | x6 || x6 | x6 | %167
 x6 | x6 | x6 | x6 | x6 | x6 | x6 | x6 | x6 | x6 | x6 | x6 | x6 | x6 |: x6 | x6 | x6 | x6 | x6 | %186
 x6 | x6 | x6 | x6 | x6 | x6 | x6 | x6 | x6 | x6 | x6 ||1 x6 | x6 | x6 | x6 | x6 | x6 | x6 | x6 | %205
 x6 :| x6 | x6 | x6 | x6 | x6 | x6 | x6 | x6 | x6 | x6 | x6 | x6 | x6 | x6 | x6 | x6 | x6 | x6 | %224
 x6 | x6 | x6 | x6 | x6 | x6 | x6 | x6 | x6 | x4 x !1!c || [!5!F,!3!F!2!A]2 [!5!A,!3!A!2!c]4 | %235
 [!4!G,!3!D!2!G] !3!D !2!G4 | [!5!D,!3!C!2!F] !3!C !slide![!4!C!3!F!2!A]2 !2!A2 | %237
 [!6!G,,!4!F,!3!=B,]2 [!2!D!1!A]4 | [!6!G,,!4!F,!3!B,] !4!F, !3!B, !2!D x2 | %239
 [!5!C,!2!D] !3!B, !2!E !3!B, !2!E2 | [!5!F,!4!C!3!E!2!A] !4!C !3!E !2!A !3!E !4!C | x6 | %242
 [!5!F,!3!F!2!A]4 [!5!A,!3!A!2!c]2 | [!4!G,!3!D!2!G] !3!D !2!G4 | %244
 [!5!D,!3!C!2!F] !3!C !slide![!4!C!3!F!2!A]2 !2!A2 | [!6!G,,!4!F,!3!=B,]2 [!2!D!1!A]4 | %246
 [!6!G,,!4!F,!3!B,] !4!F, !3!B, !2!D x2 | [!5!C,!2!D] !3!B, !2!E !3!B, !1!x !2!x | %248
 !5!F, !4!A, !3!C !4!A, !3!C !4!A, | x6 |: [!6!B,,!4!A,!3!D] !4!A, !3!D !4!A, !3!D !4!A, | %251
 [!6!A,,!4!G,!3!^C] !4!G, !3!C !4!G, !3!C !4!G, | !5!D, !4!A, !3!C !2!x !3!x !4!x | %253
 [!6!G,,!3!=B,] !4!F, !3!B, !4!F, !3!B, !4!F, | !6!G,, !5!D, !4!F, !5!D, !4!F,2 | %255
 !6!G,, !5!D, !4!G, !5!D, !4!G, !5!D, | !6!C, !5!E, !4!G, !4!x !4!x !3!x | %257
 !6!C, !5!E, !4!G, !5!E, !4!G, !5!E, | [!6!B,,!4!A,!3!D] !4!A, !3!D !4!A, !3!D !4!A, | %259
 [!6!A,,!4!G,!3!^C] !4!G, !3!C !4!G, !3!C !4!G, | !5!D, !4!A, !3!C !2!x !3!x !4!x | %261
 [!6!G,,!3!=B,] !4!F, !3!B, !4!F, !3!B, !4!F, | !6!G,, !5!D, !4!G, !3!x !3!x !5!x | %263
 !6!G,,2 !4!F,2 !4!x !3!x | !6!C, !5!E, !4!A, !4!x !5!F, !5!G, ||1 %265
 !6!F,, !5!C, !4!F, !5!C, !4!F, !5!C, | x6 | x6 | x6 | x6 | x6 | x6 | x6 | x6 | x6 :|2 x6 || %276
 [!5!F,!3!F!2!A]4 [!5!A,!3!A!2!c]2 | [!4!G,!3!D!2!G]6 | [!5!D,!3!C!2!F]2 [!3!F!2!A]2 [!3!F!2!A]2 | %279
 [!6!G,,!4!F,!3!=B,]6 | [!6!G,,!4!F,!3!B,]6 | [!5!C,!3!B,!2!D]6 | %282
 [!6!A,,!4!G,!3!C]4 x [!5!D,!3!_E] | [!5!D,!3!_E]6 | [!6!B,,!4!A,!3!D]6 | [!6!A,,!4!G,]6 | %286
 [!5!F,!4!C]6 | [!5!D,!4!F,]6 | [!6!G,,!4!F,!3!B,]6 | [!6!A,,!3!D]6 | [!5!F,!4!A,]4 [!6!C,!4!B,]2 | %291
 [!5!F,!4!A,!3!C]6 |] x6 | x6 | x6 | x6 | x6 | x6 | x6 | x6 || x6 | x6 | x6 | x6 | x6 | x6 | x6 | %307
 x6 | x6 | x6 | x6 | x6 | x6 | x6 | x6 | x6 | x6 |: x6 | x6 | x6 | x6 | x6 | x6 | x6 | x6 | x6 | %326
 x6 | x6 | x6 | x6 | x6 | x6 | x6 ||1 x6 | x6 | x6 | x6 | x6 | x6 | x6 | x6 | x6 :|2 x6 || x6 | %344
 x6 | x6 | x6 | x6 | x6 | x6 | x6 | x6 | x6 | x6 | x6 | x6 | x6 | x6 | x6 |] x6 | x6 | x6 | x6 | %363
 x6 | x6 | x6 | x6 | x6 | x6 | x6 | x6 | x6 | x6 | x6 | x6 | x6 | x6 | x6 | x6 | x6 | x6 | x6 | %382
 x6 | x6 |: x6 | x6 | x6 | x6 | x6 | x6 | x6 | x6 | x6 | x6 | x6 | x6 | x6 | x6 | x6 | x6 |1 x6 | %401
 x6 | x6 | x6 | x6 | x6 | x6 | x6 | x6 :|2 x6 || x6 | x6 | x6 | x6 | x6 | x6 | x6 | x6 | x6 | x6 | %420
 x6 | x6 | x6 | x6 | x6 | x6 |] x6 | x6 | x6 | x6 | x6 | x6 | x6 | x6 | x6 | x6 | x6 | x6 | x6 | %439
 x6 | x6 | x6 | x6 | x6 | x6 | x6 | x6 | x6 | x6 | x6 | x6 |: x6 | x6 | x6 | x6 | x6 | x6 | x6 | %458
 x6 | x6 | x6 | x6 | x6 | x6 | x6 | x6 | x6 |1 x6 | x6 | x6 | x6 | x6 | x6 | x6 | x6 | x6 :|2 x6 || %477
 x6 | x6 | x6 | x6 | x6 | x6 | x6 | x6 | x6 | x6 | x6 | x6 | x6 | x6 | x6 | x6 | x6 | x6 | x6 | %496
 x6 | x6 | x6 | x6 | x6 | x6 | x6 | x6 | x6 | x6 | x6 | x6 | x6 | x6 | x6 | x6 | x6 | x6 | x6 | %515
 x6 | x6 | x6 |: x6 | x6 | x6 | x6 | x6 | x6 | x6 | x6 | x6 | x6 | x6 | x6 | x6 | x6 | x6 | x6 |1 %534
 x6 | x6 | x6 | x6 | x6 | x6 | x6 | x6 | x6 :|2 x6 || x6 | x6 | x6 | x6 | x6 | x6 | x6 | x6 | x6 | %553
 x6 | x6 | x6 | x6 | x6 | x6 | x6 |] %560

